!!!!SEGMENT: pl-sa--172-a-v-2--002_szczurowski-jacek--msza-swiateczna-christe.krn
!!!cenid: 17xx:262
!!!COM: Szczurowski, Jacek
!!!COM-rismID: pe30017605
!!!CDT: 1716/08/15-~1733
!!!CNT: Polish
!!!OPR: Msza świąteczna
!!!OTL: Christe
!!!OMV: 002
!!!PDT:
!!!AGN: Sacred; Mass
!!!SMS-siglum: PL-SA
!!!SMS-shelfmark: 172/A V 2
!!!SMS-shelfwork: 001-002 M
!!!NIFC-rismSourceID:
!!!NIFC-islandoraID:
!!!URL-pdf-islandora:
!!!URL-scan: https://bc.bdsandomierz.pl/dlibra/publication/1506/edition/1474/content @EN{Scan on Cyfrowa Biblioteka Diecezjalna w Sandomierzu} @PL{Skany w portalu Cyfrowa Biblioteka Diecezjalna w Sandomierzu}
!!!ONB-nifc: UWAGA: części Mszy: Kyrie, Christe, Et in terra, Laudamus, Qui tollis, Quoniam, Patrem, Et Incarnatus, Ressurexit, Sanctus, Osanna, Benedictus, Agnus Dei
!!!AIN: 2 cor 1 organ 2 soprn 2 violn
!!!key: D
**kern	**fba	**dynam	**kern	**dynam	**kern	**dynam	**kern	**text	**kern	**text	**kern	**kern
*part7	*part7	*part7	*part6	*part6	*part5	*part5	*part4	*part4	*part3	*part3	*part2	*part1
*	*	*	*group3	*	*group3	*	*group2	*	*group2	*	*group1	*group1
*staff7	*	*	*staff6	*	*staff5	*	*staff4	*staff4	*staff3	*staff3	*staff2	*staff1
*Iorgan	*	*	*Ivioln	*	*Ivioln	*	*Isoprn	*	*Isoprn	*	*Icor	*Icor
*I"Organo:	*	*	*I"Violino 2:d:	*	*I"Violino Primo	*	*I"Soprano 2:do:	*	*I"Soprano Primo.	*	*I"Corno 2.do Ex D:	*I"Corno Primo Ex D:
*I'org	*	*	*I'vl 2	*	*I'vl 1	*	*I'S 2	*	*I'S 1	*	*I'cor 2	*I'cor 1
*ICklav	*	*	*ICstr	*	*ICstr	*	*ICvox	*	*ICvox	*	*ICbras	*ICbras
*IGcont	*	*	*	*	*	*	*IGsolo	*	*IGsolo	*	*	*
*mI"Organo	*	*	*mI"Violino II	*	*mI"Violino I	*	*mI"Soprano II	*	*mI"Soprano I	*	*mI"Corno II in D	*mI"Corno I in D
*clefF4	*	*	*clefG2	*	*clefG2	*	*clefC1	*	*clefC1	*	*clefG2	*clefG2
*	*	*	*	*	*	*	*mclefG2	*	*mclefG2	*	*	*
*	*	*	*	*	*	*	*	*	*	*	*ITrd6c10	*ITrd6c10
*k[f#c#]	*	*	*k[f#c#]	*	*k[f#c#]	*	*k[f#c#]	*	*k[f#c#]	*	*k[f#c#]	*k[f#c#]
*D:	*	*	*D:	*	*D:	*	*D:	*	*D:	*	*D:	*D:
*M2/4	*	*	*M2/4	*	*M2/4	*	*M2/4	*	*M2/4	*	*M2/4	*M2/4
!!!OMD:
!!!OMD-mod: Allegro
!LO:TX:a:mod=:t=allo	!	!	!LO:TX:a:mod=:t=allo	!	!LO:TX:a:mod=:t=allo	!	!	!	!	!	!LO:TX:a:mod=:t=allo	!LO:TX:a:mod=:t=allo
!LO:TX:a:t=P:problem=krzyżyki przy kluczu zapisane jeden nad drugim	!	!	!	!	!	!	!LO:TX:a:t=P:problem=krzyżyki przy kluczu zapisane jeden nad drugim, cis oktawę wyżej	!	!LO:TX:a:t=P:problem=krzyżyki przy kluczu zapisane jeden nad drugim, cis oktawę wyżej	!	!	!
!	!	!	!	!	!	!	!LO:TX:a:t=P:problem=pojedyncze ósemki i szesnastki mają chorągiewki z lewej strony kreski	!	!LO:TX:a:t=P:problem=pojedyncze ósemki i szesnastki mają chorągiewki z lewej strony kreski	!	!	!
8r	.	.	8r	.	8a/	.	8r	.	8r	.	8r	8r
=1	=1	=1	=1	=1	=1	=1	=1	=1	=1	=1	=1	=1
!	!	!LO:MO:null:mod=!LO&colon;DY&colon;ed=brack	!	!	!	!	!	!	!	!	!	!
!	!	!	!	!	!	!	!	!	!	!	!	!
!	!	!LO:MO:null:mod=f	!LO:SIC:s=4dd|	!LO:MO:null:mod=f	!	!LO:DY:a:t=For	!LO:TX:a:mod=:t=28	!	!LO:TX:a:mod=:t=18	!	!	!
4d\|	.	.	4dd\	.	4dd\|	f	0r	.	0r	.	4d/	4d\
!	!	!	!LO:SIC:s=4a|	!LO:DY:a:t=For	!	!	!	!	!	!	!	!
!	!	!	!	!LO:MO:null:mod=.	!	!	!	!	!	!	!	!
4A\|	.	.	4a/	f	4a/|	.	.	.	.	.	4A/	4A/
=2	=2	=2	=2	=2	=2	=2	=2	=2	=2	=2	=2	=2
!	!	!	!LO:SIC:s=8f#L|	!	!	!	!	!	!	!	!	!
8F#\L|	.	.	8f#/L	.	8f#/L|	.	.	.	.	.	8F#/L	8F#/L
!	!	!	!LO:SIC:s=8dJ|	!	!	!	!	!	!	!	!	!
8D\J|	.	.	8d/J	.	8d/J|	.	.	.	.	.	8D/J	8D/J
8r	.	.	8r	.	8r	.	.	.	.	.	8r	8r
8F#\	6	.	8f#/	.	8a/	.	.	.	.	.	8f#\	8a\
=3	=3	=3	=3	=3	=3	=3	=3	=3	=3	=3	=3	=3
8G\L	.	.	16g/LL	.	16b\LL	.	.	.	.	.	4g\	4b\
.	.	.	16g/	.	16b\	.	.	.	.	.	.	.
8G\	.	.	16b/	.	16dd\	.	.	.	.	.	.	.
.	.	.	16b/JJ	.	16dd\JJ	.	.	.	.	.	.	.
8G\	.	.	16dd\LL	.	16gg\LL	.	.	.	.	.	4r	4r
.	.	.	16dd\	.	16gg\	.	.	.	.	.	.	.
8G\J	.	.	16gg\	.	16bb\	.	.	.	.	.	.	.
.	.	.	16gg\JJ	.	16bb\JJ	.	.	.	.	.	.	.
=4	=4	=4	=4	=4	=4	=4	=4	=4	=4	=4	=4	=4
8G\L	.	.	16gg\LL	.	16bb\LL	.	.	.	.	.	4g\	4b\
.	.	.	16gg\	.	16bb\	.	.	.	.	.	.	.
8G\	.	.	16dd\	.	16gg\	.	.	.	.	.	.	.
.	.	.	16dd\JJ	.	16gg\JJ	.	.	.	.	.	.	.
8G\	.	.	16b/LL	.	16dd\LL	.	.	.	.	.	4r	4r
.	.	.	16b/	.	16dd\	.	.	.	.	.	.	.
8G\J	.	.	16g/	.	16b\	.	.	.	.	.	.	.
.	.	.	16g/JJ	.	16b\JJ	.	.	.	.	.	.	.
=5	=5	=5	=5	=5	=5	=5	=5	=5	=5	=5	=5	=5
8D/L	.	.	16f#/LL	.	16a\LL	.	0r	.	0r	.	4f#\	4a\
.	.	.	16f#/	.	16a\	.	.	.	.	.	.	.
8D/	.	.	16a/	.	16dd\	.	.	.	.	.	.	.
.	.	.	16a/JJ	.	16dd\JJ	.	.	.	.	.	.	.
8D/	.	.	16dd\LL	.	16ff#\LL	.	.	.	.	.	4r	4r
.	.	.	16dd\	.	16ff#\	.	.	.	.	.	.	.
8D/J	.	.	16ff#\	.	16aa\	.	.	.	.	.	.	.
.	.	.	16ff#\JJ	.	16aa\JJ	.	.	.	.	.	.	.
=6	=6	=6	=6	=6	=6	=6	=6	=6	=6	=6	=6	=6
8D/L	.	.	16ff#\LL	.	16aa\LL	.	.	.	.	.	4f#\	4a\
.	.	.	16ff#\	.	16aa\	.	.	.	.	.	.	.
8D/	.	.	16dd\	.	16ff#\	.	.	.	.	.	.	.
.	.	.	16dd\JJ	.	16ff#\JJ	.	.	.	.	.	.	.
8D/	.	.	16a/LL	.	16dd\LL	.	.	.	.	.	4r	4r
.	.	.	16a/	.	16dd\	.	.	.	.	.	.	.
8D/J	.	.	16f#/	.	16a\	.	.	.	.	.	.	.
.	.	.	16f#/JJ	.	16a\JJ	.	.	.	.	.	.	.
=7	=7	=7	=7	=7	=7	=7	=7	=7	=7	=7	=7	=7
8AA/L	.	.	16e/LL	.	16g/LL	.	.	.	.	.	4e\	4g\
.	.	.	16e/	.	16g/	.	.	.	.	.	.	.
8AA/	.	.	16a/	.	16cc#/	.	.	.	.	.	.	.
.	.	.	16a/JJ	.	16cc#/JJ	.	.	.	.	.	.	.
!	!	!	!LO:LB:g=original	!	!	!	!	!	!	!	!	!
8AA/	.	.	16cc#\LL	.	16ee\LL	.	.	.	.	.	4r	4r
.	.	.	16cc#\	.	16ee\	.	.	.	.	.	.	.
8AA/J	.	.	16ee\	.	16gg\	.	.	.	.	.	.	.
.	.	.	16ee\JJ	.	16gg\JJ	.	.	.	.	.	.	.
!	!	!	!	!	!LO:LB:g=original	!	!	!	!	!	!	!
=8	=8	=8	=8	=8	=8	=8	=8	=8	=8	=8	=8	=8
8AA/L	.	.	16ee\LL	.	16gg\LL	.	.	.	.	.	4e\	4g\
.	.	.	16ee\	.	16gg\	.	.	.	.	.	.	.
8AA/	.	.	16cc#\	.	16ee\	.	.	.	.	.	.	.
.	.	.	16cc#\JJ	.	16ee\JJ	.	.	.	.	.	.	.
8AA/	.	.	16a/LL	.	16cc#\LL	.	.	.	.	.	4r	4r
.	.	.	16a/	.	16cc#\	.	.	.	.	.	.	.
8C#/J	.	.	16e/	.	16g\	.	.	.	.	.	.	.
.	.	.	16e/JJ	.	16g\JJ	.	.	.	.	.	.	.
!	!	!	!	!	!	!	!	!	!	!	!	!LO:LB:g=original
=9	=9	=9	=9	=9	=9	=9	=9	=9	=9	=9	=9	=9
8D/L	.	.	8e/L	.	8g/L	.	0r	.	0r	.	8e\L	8g\L
8D/	.	.	8d/J	.	8f#/J	.	.	.	.	.	8D/J	8f#\J
8D/	.	.	8r	.	8r	.	.	.	.	.	8r	8r
8D/J	.	.	8dd\	.	8ff#\	.	.	.	.	.	8D/	8f#\
=10	=10	=10	=10	=10	=10	=10	=10	=10	=10	=10	=10	=10
8AA/L	.	.	8dd\L	.	8ff#\L	.	.	.	.	.	8d/L	8f#\L
8AA/	.	.	8cc#\J	.	8ee\J	.	.	.	.	.	8A/J	8e\J
8AA/	.	.	8r	.	8r	.	.	.	.	.	8r	8r
8AA/J	.	.	8ee\	.	8gg\	.	.	.	.	.	8e\	8g\
!LO:LB:g=original	!	!	!	!	!	!	!	!	!	!	!	!
=11	=11	=11	=11	=11	=11	=11	=11	=11	=11	=11	=11	=11
8D/L	2	.	8ee\L	.	8gg\L	.	.	.	.	.	8e\L	8g\L
8D/	3	.	8dd\J	.	8ff#\J	.	.	.	.	.	8D/J	8f#\J
8D/	.	.	8r	.	8r	.	.	.	.	.	4r	4r
!	!	!	!	!	!	!LO:DY:a:t=pia	!	!	!	!	!	!
8D/J	.	.	8d/	p	8f#/	p	.	.	.	.	.	.
=12	=12	=12	=12	=12	=12	=12	=12	=12	=12	=12	=12	=12
!	!	!LO:MO:null:mod=!LO&colon;DY&colon;ed=brack	!	!	!	!	!	!	!	!	!	!
!	!	!	!	!	!	!	!	!	!	!	!	!
!	!	!LO:MO:null:mod=p	!	!	!	!	!	!	!	!	!LO:TX:a:mod=:t=1	!LO:TX:a:mod=:t=1
8AA/L	.	.	8d/L	.	8f#/L	.	.	.	.	.	2r	2r
8AA/	.	.	8c#/J	.	8e/J	.	.	.	.	.	.	.
8AA/	.	.	8r	.	8r	.	.	.	.	.	.	.
8AA/J	7	.	8e/	.	8g/	.	.	.	.	.	.	.
!	!	!	!	!	!	!	!	!	!	!	!LO:LB:g=original	!
=13	=13	=13	=13	=13	=13	=13	=13	=13	=13	=13	=13	=13
8D\L	.	.	8e/L	.	8g/L	.	0r	.	0r	.	4r	4r
8D\	.	.	8d/J	.	8f#/J	.	.	.	.	.	.	.
8D\	.	.	8r	.	8r	.	.	.	.	.	8r	8r
8F#\J	6	.	8f#/	.	8a/	.	.	.	.	.	8f#\	8a\
=14	=14	=14	=14	=14	=14	=14	=14	=14	=14	=14	=14	=14
!	!	!LO:MO:null:mod=!LO&colon;DY&colon;ed=brack	!	!	!	!	!	!	!	!	!	!
!	!	!	!	!	!	!	!	!	!	!	!	!
!	!	!LO:MO:null:mod=f	!	!LO:DY:a:t=For	!	!LO:DY:a:t=For	!	!	!	!	!	!
8A\L	.	.	16e/LL	f	16cc#\LL	f	.	.	.	.	8e\L	8cc#\L
.	.	.	16e/	.	16cc#\	.	.	.	.	.	.	.
8A\	.	.	16e/	.	16cc#\	.	.	.	.	.	8e\	8cc#\
.	.	.	16e/JJ	.	16cc#\JJ	.	.	.	.	.	.	.
8G\	2	.	16e/LL	.	16cc#\LL	.	.	.	.	.	8e\	8cc#\
.	.	.	16e/	.	16cc#\	.	.	.	.	.	.	.
8G\J	.	.	16e/	.	16cc#\	.	.	.	.	.	8e\J	8cc#\J
.	.	.	16e/JJ	.	16cc#\JJ	.	.	.	.	.	.	.
=15	=15	=15	=15	=15	=15	=15	=15	=15	=15	=15	=15	=15
8F#\L	6	.	16a/LL	.	16dd\LL	.	.	.	.	.	8f#\L	8dd\L
.	.	.	16a/	.	16dd\	.	.	.	.	.	.	.
8F#\	.	.	16a/	.	16dd\	.	.	.	.	.	8f#\	8dd\
.	.	.	16a/JJ	.	16dd\JJ	.	.	.	.	.	.	.
8D\	.	.	16f#/LL	.	16a/LL	.	.	.	.	.	8f#\	8a\
.	.	.	16f#/	.	16a/	.	.	.	.	.	.	.
8D\J	.	.	16f#/	.	16a/	.	.	.	.	.	8f#\J	8a\J
.	.	.	16f#/JJ	.	16a/JJ	.	.	.	.	.	.	.
=16	=16	=16	=16	=16	=16	=16	=16	=16	=16	=16	=16	=16
8G\L	6	.	16g/LL	.	16b/LL	.	.	.	.	.	8g\L	8b\L
.	.	.	16g/	.	16b/	.	.	.	.	.	.	.
8G\	.	.	16g/	.	16b/	.	.	.	.	.	8g\	8b\
.	.	.	16g/JJ	.	16b/JJ	.	.	.	.	.	.	.
8G\	.	.	16ee\LL	.	16gg\LL	.	.	.	.	.	8e\	8g\
.	.	.	16ee\	.	16gg\	.	.	.	.	.	.	.
8G\J	.	.	16ee\	.	16gg\	.	.	.	.	.	8e\J	8g\J
.	.	.	16ee\JJ	.	16gg\JJ	.	.	.	.	.	.	.
!	!	!	!	!	!LO:LB:g=original	!	!	!	!	!	!	!
=17	=17	=17	=17	=17	=17	=17	=17	=17	=17	=17	=17	=17
8A\L	1	.	16dd\LL	.	16ff#\LL	.	0r	.	1r	.	8D/L	8f#\L
.	.	.	16dd\	.	16ff#\	.	.	.	.	.	.	.
8A\	.	.	16dd\	.	16ff#\	.	.	.	.	.	8D/	8f#\
.	.	.	16dd\JJ	.	16ff#\JJ	.	.	.	.	.	.	.
!	!	!	!LO:LB:g=original	!	!	!	!	!	!	!	!	!
8A\	.	.	16dd\LL	.	16ff#\LL	.	.	.	.	.	8D/	8f#\
.	.	.	16dd\	.	16ff#\	.	.	.	.	.	.	.
8A\J	.	.	16dd\	.	16ff#\	.	.	.	.	.	8D/J	8f#\J
.	.	.	16dd\JJ	.	16ff#\JJ	.	.	.	.	.	.	.
=18	=18	=18	=18	=18	=18	=18	=18	=18	=18	=18	=18	=18
8AA/L	.	.	16cc#\LL	.	16ee\LL	.	.	.	.	.	8A/L	8e\L
.	.	.	16cc#\	.	16ee\	.	.	.	.	.	.	.
8AA/	.	.	16cc#\	.	16ee\	.	.	.	.	.	8A/	8e\
.	.	.	16cc#\JJ	.	16ee\JJ	.	.	.	.	.	.	.
8AA/	.	.	16cc#\LL	.	16ee\LL	.	.	.	.	.	8A/	8e\
.	.	.	16cc#\	.	16ee\	.	.	.	.	.	.	.
8AA/J	.	.	16cc#\	.	16ee\	.	.	.	.	.	8A/J	8e\J
.	.	.	16cc#\JJ	.	16ee\JJ	.	.	.	.	.	.	.
=19	=19	=19	=19	=19	=19	=19	=19	=19	=19	=19	=19	=19
8D/L	.	.	4dd\	.	4dd\	.	.	.	4r	.	4F#/	4d\
8AA/	.	.	.	.	.	.	.	.	.	.	.	.
8DD/J	.	.	4r	.	8r	.	.	.	8r	.	4r	4r
!	!	!	!	!	!	!LO:DY:a	!	!	!	!	!	!
8r	.	.	.	.	8a/	p	.	.	8a\	Chri-	.	.
=20	=20	=20	=20	=20	=20	=20	=20	=20	=20	=20	=20	=20
!	!	!LO:MO:mod=!null:null	!	!	!	!	!	!	!	!	!	!
!	!	!LO:DY:t=pia	!	!LO:DY:a	!	!	!	!	!	!	!LO:TX:a:mod=:t=4	!LO:TX:a:mod=:t=4
8D/L	.	p	16dd\LL	p	16dd\LL	.	.	.	4dd\	-ste	0r	0r
.	.	.	16dd\	.	16dd\	.	.	.	.	.	.	.
8D/	.	.	16dd\	.	16dd\	.	.	.	.	.	.	.
.	.	.	16dd\JJ	.	16dd\JJ	.	.	.	.	.	.	.
8D/	.	.	16a/LL	.	16a/LL	.	.	.	4a\	e-	.	.
.	.	.	16a/	.	16a/	.	.	.	.	.	.	.
8D/J	.	.	16a/	.	16a/	.	.	.	.	.	.	.
.	.	.	16a/JJ	.	16a/JJ	.	.	.	.	.	.	.
=21	=21	=21	=21	=21	=21	=21	=21	=21	=21	=21	=21	=21
8D/L	.	.	8f#/L	.	8f#/L	.	0r	.	8f#/L	-lei-	.	.
8D/	.	.	8d/J	.	8d/J	.	.	.	8d/J	-son	.	.
8D/	.	.	8r	.	8r	.	.	.	8r	.	.	.
8D/J	.	.	8f#/	.	8a/	.	.	.	8a\	e-	.	.
=22	=22	=22	=22	=22	=22	=22	=22	=22	=22	=22	=22	=22
!	!	!	!	!	!	!	!	!	!	!LO:MO:mod=-lei-	!	!
8G\L	.	.	16g/LL	.	16b\LL	.	.	.	8b\L	-lej-	.	.
.	.	.	16g/	.	16b\	.	.	.	.	.	.	.
8G\	.	.	16b/	.	16dd\	.	.	.	8dd\	.	.	.
.	.	.	16b/JJ	.	16dd\JJ	.	.	.	.	.	.	.
8G\	.	.	16b/LL	.	16gg\LL	.	.	.	8gg\J	.	.	.
.	.	.	16b/	.	16gg\	.	.	.	.	.	.	.
8G\J	.	.	16b/	.	16gg\	.	.	.	8r	.	.	.
.	.	.	16b/JJ	.	16gg\JJ	.	.	.	.	.	.	.
=23	=23	=23	=23	=23	=23	=23	=23	=23	=23	=23	=23	=23
8D/L	.	.	16f#/LL	.	16a\LL	.	.	.	8a\L	.	.	.
.	.	.	16f#/	.	16a\	.	.	.	.	.	.	.
8D/	.	.	16a/	.	16dd\	.	.	.	8dd\	.	.	.
.	.	.	16a/JJ	.	16dd\JJ	.	.	.	.	.	.	.
8D/	.	.	16a/LL	.	16ff#\LL	.	.	.	8ff#\J	.	.	.
.	.	.	16a/	.	16ff#\	.	.	.	.	.	.	.
8D/J	.	.	16a/	.	16ff#\	.	.	.	8r	.	.	.
.	.	.	16a/JJ	.	16ff#\JJ	.	.	.	.	.	.	.
!LO:LB:g=original	!	!	!	!	!	!	!	!	!	!	!	!
=24	=24	=24	=24	=24	=24	=24	=24	=24	=24	=24	=24	=24
8AA/L	7	.	16e/LL	.	16g/LL	.	.	.	8g\L	.	4r	4r
.	.	.	16e/	.	16g/	.	.	.	.	.	.	.
8AA/	.	.	16g/	.	16cc#/	.	.	.	8cc#\	.	.	.
.	.	.	16g/JJ	.	16cc#/JJ	.	.	.	.	.	.	.
!	!	!	!	!	!LO:LB:g=original	!	!	!	!	!	!	!
8AA/	.	.	16cc#/LL	.	16ee/LL	.	.	.	8ee\	.	8r	8r
.	.	.	16cc#/	.	16ee/	.	.	.	.	.	.	.
8C#/J	.	.	16e/	.	16g/	.	.	.	8g\J	.	8e\	8g\
.	.	.	16e/JJ	.	16g/JJ	.	.	.	.	.	.	.
=25	=25	=25	=25	=25	=25	=25	=25	=25	=25	=25	=25	=25
8D/L	2	.	8e/L	.	8g/L	.	0r	.	8g/	.	8e\L	8g\L
!	!	!	!	!	!	!	!	!	!LO:N:vis=4	!	!	!
8D/	3	.	8d/J	.	8f#/J	.	.	.	8f#/	-son	8D/J	8f#\J
8D/	.	.	8r	.	8r	.	.	.	8r	.	4r	4r
!	!	!	!	!	!	!	!	!	!LO:LB:g=original	!	!	!
8D/J	.	.	8f#/	.	8a/	.	.	.	8a\	e-	.	.
!	!	!	!	!	!	!	!	!	!	!	!	!LO:LB:g=original
=26	=26	=26	=26	=26	=26	=26	=26	=26	=26	=26	=26	=26
!	!	!	!	!	!	!	!	!	!	!	!LO:TX:a:mod=:t=2	!LO:TX:a:mod=:t=2
8G\L	.	.	16g/LL	.	16b\LL	.	.	.	8b\L	-lei-	1r	1r
.	.	.	16g/	.	16b\	.	.	.	.	.	.	.
8G\	.	.	16b/	.	16dd\	.	.	.	8dd\	.	.	.
.	.	.	16b/JJ	.	16dd\JJ	.	.	.	.	.	.	.
!	!	!	!LO:LB:g=original	!	!	!	!	!	!	!	!	!
8G\	.	.	16b/LL	.	16gg\LL	.	.	.	8gg\J	.	.	.
.	.	.	16b/	.	16gg\	.	.	.	.	.	.	.
8G\J	.	.	16b/	.	16gg\	.	.	.	8r	.	.	.
.	.	.	16b/JJ	.	16gg\JJ	.	.	.	.	.	.	.
=27	=27	=27	=27	=27	=27	=27	=27	=27	=27	=27	=27	=27
8D/L	.	.	16f#/LL	.	16a/LL	.	.	.	8a\L	.	.	.
.	.	.	16f#/	.	16a/	.	.	.	.	.	.	.
8D/	.	.	16a/	.	16dd/	.	.	.	8dd\	.	.	.
.	.	.	16a/JJ	.	16dd/JJ	.	.	.	.	.	.	.
8D/	.	.	16dd\LL	.	16ff#\LL	.	.	.	8ff#\J	.	.	.
.	.	.	16dd\	.	16ff#\	.	.	.	.	.	.	.
8D/J	.	.	16dd\	.	16ff#\	.	.	.	8r	.	.	.
.	.	.	16dd\JJ	.	16ff#\JJ	.	.	.	.	.	.	.
=28	=28	=28	=28	=28	=28	=28	=28	=28	=28	=28	=28	=28
8AA/L	7	.	16e/LL	.	16g/LL	.	.	.	8g\L	.	4r	4r
.	.	.	16e/	.	16g/JJ	.	.	.	.	.	.	.
8AA/	.	.	16g/	.	16cc#\LL	.	.	.	8cc#\	.	.	.
.	.	.	16g/JJ	.	16cc#\JJ	.	.	.	.	.	.	.
8AA/	.	.	16cc#/LL	.	16ee/LL	.	.	.	8ee\	.	8r	8r
.	.	.	16cc#/	.	16ee/	.	.	.	.	.	.	.
8C#/J	.	.	16e/	.	16g/	.	.	.	8g\J	.	8e\	8g\
.	.	.	16e/JJ	.	16g/JJ	.	.	.	.	.	.	.
=29	=29	=29	=29	=29	=29	=29	=29	=29	=29	=29	=29	=29
8D/L	2	.	8e/L	.	8g/L	.	4r	.	8g/	.	8e\L	8g\L
8D/	3	.	8d/J	.	8f#/J	.	.	.	8f#/	-son	8D/J	8f#\J
8D/	.	.	8r	.	8r	.	8r	.	8r	.	8r	8r
!	!	!	!	!LO:MO:null:mod=!LO&colon;DY&colon;ed=brack	!	!	!	!	!	!	!	!
!	!	!	!	!	!	!	!	!	!	!	!	!
!	!	!	!	!LO:MO:null:mod=f	!	!LO:DY:a	!	!	!	!	!	!
8D/J	.	.	8dd\	.	8ff#\	f	8dd\	e-	8ff#\	e-	8D/	8f#\
=30	=30	=30	=30	=30	=30	=30	=30	=30	=30	=30	=30	=30
!	!	!LO:MO:null:mod=!LO&colon;DY&colon;ed=brack	!	!	!	!	!	!	!	!	!	!
!	!	!	!	!	!	!	!	!	!	!	!	!
!	!	!LO:MO:null:mod=f	!	!	!	!	!	!LO:MO:mod=-lei-	!	!	!	!
8AA/L	4	.	8dd\L	.	8ff#\L	.	8dd\	-lej-	8ff#\	-lei-	8d/L	8f#\L
8AA/	3	.	8cc#\J	.	8ee\J	.	8cc#\	-son	8ee\	-son	8A/J	8e\J
8AA/	.	.	8r	.	8r	.	8r	.	8r	.	8r	8r
*	*	*	*	*	*	*	*	*	*	*ij	*	*
8AA/J	7	.	8ee\	.	8gg\	.	8ee\	e-	8gg\	e-	8e\	8g\
=31	=31	=31	=31	=31	=31	=31	=31	=31	=31	=31	=31	=31
!	!	!	!	!	!	!	!	!LO:MO:mod=-lei-	!	!	!	!
8D/L	2	.	8ee\L	.	8gg\L	.	8ee\	-lej-	8gg\	-lei-	8e\L	8g\L
8D/	3	.	8dd\J	.	8ff#\J	.	8dd\	-son	8ff#\	-son	8D/J	8f#\J
8D/	.	.	8r	.	8r	.	8r	.	8r	.	4r	4r
!	!	!	!	!LO:MO:null:mod=!LO&colon;DY&colon;ed=brack	!	!	!	!	!	!	!	!
!	!	!	!	!	!	!	!	!	!	!	!	!
!	!	!	!	!LO:MO:null:mod=p	!	!LO:DY:a	!	!	!	!	!	!
8D/J	.	.	8d/	.	8f#/	p	8f#/	e-	8dd\	e-	.	.
=32	=32	=32	=32	=32	=32	=32	=32	=32	=32	=32	=32	=32
!	!	!LO:MO:null:mod=!LO&colon;DY&colon;ed=brack	!	!	!	!	!	!	!	!	!	!
!	!	!	!	!	!	!	!	!	!	!	!	!
!	!	!LO:MO:null:mod=p	!	!	!	!	!	!LO:MO:mod=-lei-	!	!	!LO:TX:a:mod=:t=1	!LO:TX:a:mod=:t=1
8AA/L	4	.	8d/L	.	8f#/L	.	8f#/	-lej-	8dd\	-lei-	2r	2r
8AA/	3	.	8c#/J	.	8e/J	.	8e/	-son	8cc#\	-son	.	.
*	*	*	*	*	*	*	*	*	*	*Xij	*	*
8AA/	.	.	8r	.	8r	.	8r	.	8r	.	.	.
8AA/J	7	.	8e/	.	8g/	.	8g/	e-	8ee\	e-	.	.
!	!	!	!	!	!	!	!LO:LB:g=original	!	!	!	!LO:LB:g=original	!
=33	=33	=33	=33	=33	=33	=33	=33	=33	=33	=33	=33	=33
!	!	!	!	!	!	!	!	!LO:MO:mod=-lei-	!	!	!	!
8D\L	.	.	8e/L	.	8g/L	.	8g/	-lej-	8ee\	-lei-	4r	4r
8D\	.	.	8d/J	.	8f#/J	.	8f#/	-son	8dd\	-son	.	.
!	!	!	!	!	!LO:LB:g=original	!	!	!	!	!	!	!
8D\	.	.	8r	.	8r	.	8r	.	8r	.	8r	8r
!	!	!	!	!	!	!	!	!	!LO:LB:g=original	!	!	!
8F#\J	6	.	8f#/	.	8a/	.	8f#/	e-	8a\	e-	8f#\	8a\
=34	=34	=34	=34	=34	=34	=34	=34	=34	=34	=34	=34	=34
!	!	!	!	!	!	!	!	!LO:MO:mod=-lei-	!	!	!	!
8G\L	.	.	16g/LL	.	16b/LL	.	4g/	-lej-	4b\	-lei	8g\L	8b\L
.	.	.	16g/	.	16b/	.	.	.	.	.	.	.
8G\	.	.	16g/	.	16b/	.	.	.	.	.	8g\	8b\
.	.	.	16g/JJ	.	16b/JJ	.	.	.	.	.	.	.
8E\	6	.	16g/LL	.	16cc#\LL	.	4e/	.	4cc#\	.	8e\	8cc#\
.	.	.	16g/	.	16cc#\	.	.	.	.	.	.	.
8E\J	.	.	16g/	.	16cc#\	.	.	.	.	.	8e\J	8cc#\J
.	.	.	16g/JJ	.	16cc#\JJ	.	.	.	.	.	.	.
=35	=35	=35	=35	=35	=35	=35	=35	=35	=35	=35	=35	=35
8D\L	.	.	16f#/LL	.	16dd\LL	.	2f#/	.	4dd\	.	8f#\L	8dd\L
.	.	.	16f#/	.	16dd\	.	.	.	.	.	.	.
8D\	.	.	16f#/	.	16dd\	.	.	.	.	.	8f#\	8dd\
.	.	.	16f#/JJ	.	16dd\JJ	.	.	.	.	.	.	.
8F#\	6	.	16f#/LL	.	16a/LL	.	.	.	4a\	.	8f#\	8a\
.	.	.	16f#/	.	16a/	.	.	.	.	.	.	.
8F#\J	.	.	16f#/	.	16a/	.	.	.	.	.	8f#\J	8a\J
.	.	.	16f#/JJ	.	16a/JJ	.	.	.	.	.	.	.
=36	=36	=36	=36	=36	=36	=36	=36	=36	=36	=36	=36	=36
8G\L	6	.	16g/LL	.	16b/LL	.	4g/	.	4b\	.	8g\L	8b\L
.	.	.	16g/	.	16b/	.	.	.	.	.	.	.
8G\	.	.	16g/	.	16b/	.	.	.	.	.	8g\	8b\
.	.	.	16g/JJ	.	16b/JJ	.	.	.	.	.	.	.
!	!	!	!LO:LB:g=original	!	!	!	!	!	!	!	!	!
8G\	.	.	16ee\LL	.	16gg\LL	.	4ee\	.	4gg\	.	8e\	8g\
.	.	.	16ee\	.	16gg\	.	.	.	.	.	.	.
8G\J	.	.	16ee\	.	16gg\	.	.	.	.	.	8e\J	8g\J
.	.	.	16ee\JJ	.	16gg\JJ	.	.	.	.	.	.	.
=37	=37	=37	=37	=37	=37	=37	=37	=37	=37	=37	=37	=37
*	*	*	*	*	*	*	*2\right	*	*2\right	*	*	*
8A\L	4	.	16dd\LL	.	16ff#\LL	.	2dd\	.	2ff#\	.	8D/L	8f#\L
.	.	.	16dd\	.	16ff#\	.	.	.	.	.	.	.
8A\	.	.	16dd\	.	16ff#\	.	.	.	.	.	8D/	8f#\
.	.	.	16dd\JJ	.	16ff#\JJ	.	.	.	.	.	.	.
8A\	.	.	16dd\LL	.	16ff#\LL	.	.	.	.	.	8D/	8f#\
.	.	.	16dd\	.	16ff#\	.	.	.	.	.	.	.
8A\J	.	.	16dd\	.	16ff#\	.	.	.	.	.	8D/J	8f#\J
.	.	.	16dd\JJ	.	16ff#\JJ	.	.	.	.	.	.	.
!LO:LB:g=original	!	!	!	!	!	!	!	!	!	!	!	!
=38	=38	=38	=38	=38	=38	=38	=38	=38	=38	=38	=38	=38
8AA/L	3	.	16cc#\LL	.	16ee\LL	.	2cc#\	.	2ee\	.	8A/L	8e\L
.	.	.	16cc#\	.	16ee\	.	.	.	.	.	.	.
8AA/	.	.	16cc#\	.	16ee\	.	.	.	.	.	8A/	8e\
.	.	.	16cc#\JJ	.	16ee\JJ	.	.	.	.	.	.	.
8AA/	.	.	16cc#\LL	.	16ee\LL	.	.	.	.	.	8A/	8e\
.	.	.	16cc#\	.	16ee\	.	.	.	.	.	.	.
8AA/J	.	.	16cc#\	.	16ee\	.	.	.	.	.	8A/J	8e\J
.	.	.	16cc#\JJ	.	16ee\JJ	.	.	.	.	.	.	.
=39	=39	=39	=39	=39	=39	=39	=39	=39	=39	=39	=39	=39
8D\L	.	.	4dd\	.	4dd\	.	4dd\	-son	4dd\	-son	4F#/	4d\
16D\L	.	.	.	.	.	.	.	.	.	.	.	.
16E\JJ	.	.	.	.	.	.	.	.	.	.	.	.
8F#\L	8	.	8r	.	8r	.	4r	.	4r	.	8r	8r
!	!	!	!	!LO:MO:mod=!null:null	!	!	!	!	!	!	!	!
!	!	!	!	!LO:DY:t=For	!	!LO:DY:a:t=For	!	!	!	!	!	!
8D\J	.	.	8f#/	f	8a/	f	.	.	.	.	8f#\	8a\
!	!	!	!	!	!	!	!	!	!	!	!	!LO:LB:g=original
=40	=40	=40	=40	=40	=40	=40	=40	=40	=40	=40	=40	=40
!	!	!LO:MO:mod=!null:null	!	!	!	!	!	!	!	!	!	!
!	!	!LO:DY:t=For	!	!	!	!	!LO:TX:a:mod=:t=11	!	!LO:TX:a:t=9	!	!	!
8G\L	.	f	16g/LL	.	16b\LL	.	0r	.	0r	.	4g\	4b\
.	.	.	16g/	.	16b\	.	.	.	.	.	.	.
8G\	.	.	16b/	.	16dd\	.	.	.	.	.	.	.
.	.	.	16b/JJ	.	16dd\JJ	.	.	.	.	.	.	.
8G\	.	.	16dd\LL	.	16gg\LL	.	.	.	.	.	4r	4r
.	.	.	16dd\	.	16gg\	.	.	.	.	.	.	.
8G\J	.	.	16gg\	.	16bb\	.	.	.	.	.	.	.
.	.	.	16gg\JJ	.	16bb\JJ	.	.	.	.	.	.	.
!	!	!	!	!	!LO:LB:g=original	!	!	!	!	!	!	!
=41	=41	=41	=41	=41	=41	=41	=41	=41	=41	=41	=41	=41
8G\L	.	.	16gg\LL	.	16bb\LL	.	.	.	.	.	4g\	4b\
.	.	.	16gg\	.	16bb\	.	.	.	.	.	.	.
8G\	.	.	16dd\	.	16gg\	.	.	.	.	.	.	.
.	.	.	16dd\JJ	.	16gg\JJ	.	.	.	.	.	.	.
8G\	.	.	16b/LL	.	16dd\LL	.	.	.	.	.	4r	4r
.	.	.	16b/	.	16dd\	.	.	.	.	.	.	.
8G\J	.	.	16g/	.	16b\	.	.	.	.	.	.	.
.	.	.	16g/JJ	.	16b\JJ	.	.	.	.	.	.	.
=42	=42	=42	=42	=42	=42	=42	=42	=42	=42	=42	=42	=42
8D/L	.	.	16f#/LL	.	16a\LL	.	.	.	.	.	4f#\	4a\
.	.	.	16f#/	.	16a\	.	.	.	.	.	.	.
8D/	.	.	16a/	.	16dd\	.	.	.	.	.	.	.
.	.	.	16a/JJ	.	16dd\JJ	.	.	.	.	.	.	.
8D/	.	.	16dd\LL	.	16ff#\LL	.	.	.	.	.	4r	4r
.	.	.	16dd\	.	16ff#\	.	.	.	.	.	.	.
8D/J	.	.	16ff#\	.	16aa\	.	.	.	.	.	.	.
.	.	.	16ff#\JJ	.	16aa\JJ	.	.	.	.	.	.	.
=43	=43	=43	=43	=43	=43	=43	=43	=43	=43	=43	=43	=43
8D/L	.	.	16ff#\LL	.	16aa\LL	.	.	.	.	.	4f#\	4a\
.	.	.	16ff#\	.	16aa\	.	.	.	.	.	.	.
8D/	.	.	16dd\	.	16ff#\	.	.	.	.	.	.	.
.	.	.	16dd\JJ	.	16ff#\JJ	.	.	.	.	.	.	.
8D/	.	.	16a/LL	.	16dd\LL	.	.	.	.	.	4r	4r
.	.	.	16a/	.	16dd\	.	.	.	.	.	.	.
8D/J	.	.	16f#/	.	16a\	.	.	.	.	.	.	.
.	.	.	16f#/JJ	.	16a\JJ	.	.	.	.	.	.	.
=44	=44	=44	=44	=44	=44	=44	=44	=44	=44	=44	=44	=44
8AA/L	7	.	16e/LL	.	16g/LL	.	0r	.	0r	.	4e\	4g\
.	.	.	16e/	.	16g/	.	.	.	.	.	.	.
8AA/	.	.	16a/	.	16cc#/	.	.	.	.	.	.	.
.	.	.	16a/JJ	.	16cc#/JJ	.	.	.	.	.	.	.
8AA/	.	.	16cc#\LL	.	16ee\LL	.	.	.	.	.	4r	4r
.	.	.	16cc#\	.	16ee\	.	.	.	.	.	.	.
8AA/J	.	.	16ee\	.	16gg\	.	.	.	.	.	.	.
.	.	.	16ee\JJ	.	16gg\JJ	.	.	.	.	.	.	.
=45	=45	=45	=45	=45	=45	=45	=45	=45	=45	=45	=45	=45
8AA/L	.	.	16ee\LL	.	16gg\LL	.	.	.	.	.	4e\	4g\
.	.	.	16ee\	.	16gg\	.	.	.	.	.	.	.
8AA/	.	.	16cc#\	.	16ee\	.	.	.	.	.	.	.
.	.	.	16cc#\JJ	.	16ee\JJ	.	.	.	.	.	.	.
!	!	!	!LO:LB:g=original	!	!	!	!	!	!	!	!	!
8AA/	.	.	16a/LL	.	16cc#/LL	.	.	.	.	.	4r	4r
.	.	.	16a/	.	16cc#/	.	.	.	.	.	.	.
8AA/J	.	.	16e/	.	16g/	.	.	.	.	.	.	.
.	.	.	16e/JJ	.	16g/JJ	.	.	.	.	.	.	.
=46	=46	=46	=46	=46	=46	=46	=46	=46	=46	=46	=46	=46
8D\L	.	.	16e/LL	.	16g/LL	.	.	.	.	.	8e\L	8g\L
.	.	.	16e/	.	16g/	.	.	.	.	.	.	.
8D\	.	.	16d/	.	16f#/	.	.	.	.	.	8D/	8f#\
.	.	.	16d/JJ	.	16f#/JJ	.	.	.	.	.	.	.
8D\	.	.	16f#/LL	.	16a/LL	.	.	.	.	.	8f#\	8a\
.	.	.	16f#/	.	16a/	.	.	.	.	.	.	.
8E\J	6	.	16g/	.	16cc#/	.	.	.	.	.	8e\J	8cc#\J
.	.	.	16g/JJ	.	16cc#/JJ	.	.	.	.	.	.	.
=47	=47	=47	=47	=47	=47	=47	=47	=47	=47	=47	=47	=47
8F#\L	6	.	16a/LL	.	16dd\LL	.	.	.	.	.	8f#\L	8dd\L
.	.	.	16a/	.	16dd\	.	.	.	.	.	.	.
8F#\	.	.	16a/	.	16dd\	.	.	.	.	.	8f#\	8dd\
.	.	.	16a/JJ	.	16dd\JJ	.	.	.	.	.	.	.
8G\	6	.	16ee\LL	.	16gg\LL	.	.	.	.	.	8e\	8g\
.	.	.	16ee\	.	16gg\	.	.	.	.	.	.	.
8G\J	.	.	16ee\	.	16gg\	.	.	.	.	.	8e\J	8g\J
.	.	.	16ee\JJ	.	16gg\JJ	.	.	.	.	.	.	.
=48	=48	=48	=48	=48	=48	=48	=48	=48	=48	=48	=48	=48
!LO:TX:a:t=P:problem=mixed beam	!	!	!	!	!	!L:N:vis=00	!	!	!	!	!	!
8A\L	4	.	16dd\LL	.	16ff#\LL	.	1r	.	2r	.	8d/L	8f#\L
.	.	.	16dd\	.	16ff#\	.	.	.	.	.	.	.
8A\	.	.	16dd\	.	16ff#\	.	.	.	.	.	8d/	8f#\
.	.	.	16dd\JJ	.	16ff#\JJ	.	.	.	.	.	.	.
!	!	!	!	!	!LO:LB:g=original	!	!	!	!	!	!	!
8AA/	3	.	16cc#\LL	.	16ee\LL	.	.	.	.	.	8A/	8e\
.	.	.	16cc#\	.	16ee\	.	.	.	.	.	.	.
8AA/J	.	.	16cc#\	.	16ee\	.	.	.	.	.	8A/J	8e\J
.	.	.	16cc#\JJ	.	16ee\JJ	.	.	.	.	.	.	.
=49	=49	=49	=49	=49	=49	=49	=49	=49	=49	=49	=49	=49
8D/L	.	.	4dd\	.	4dd\	.	.	.	4r	.	4F#/	4d\
8AA/	.	.	.	.	.	.	.	.	.	.	.	.
8DD/J	.	.	4r	.	8r	.	.	.	8r	.	4r	4r
!	!	!	!	!	!	!LO:MO:null:mod=p	!	!	!	!	!	!
8r	.	.	.	.	8a/	.	.	.	8a\	Chri-	.	.
!LO:LB:g=original	!	!	!	!	!	!	!	!	!	!	!	!
=50	=50	=50	=50	=50	=50	=50	=50	=50	=50	=50	=50	=50
!	!	!LO:DY:a	!	!LO:DY:a:t=pia	!	!LO:DY:a	!	!	!	!	!LO:TX:a:mod=:t=2	!LO:TX:a:mod=:t=2
!	!	!	!	!	!	!LO:MO:null:mod=.	!	!	!	!	!	!
8D/L	.	p	16dd\LL	p	16dd\LL	p	2r	.	4dd\	-ste	1r	1r
.	.	.	16dd\	.	16dd\	.	.	.	.	.	.	.
8D/	.	.	16dd\	.	16dd\	.	.	.	.	.	.	.
.	.	.	16dd\JJ	.	16dd\JJ	.	.	.	.	.	.	.
8D/	.	.	16a/LL	.	16a/LL	.	.	.	4a\	e-	.	.
.	.	.	16a/	.	16a/	.	.	.	.	.	.	.
8D/J	.	.	16a/	.	16a/	.	.	.	.	.	.	.
.	.	.	16a/JJ	.	16a/JJ	.	.	.	.	.	.	.
=51	=51	=51	=51	=51	=51	=51	=51	=51	=51	=51	=51	=51
8D/L	.	.	8f#/L	.	8f#/L	.	4r	.	8f#/L	.	.	.
8D/	.	.	8d/J	.	8d/J	.	.	.	8d/J	.	.	.
8D/	.	.	8r	.	8r	.	8r	.	8r	.	.	.
8D/J	.	.	8f#/	.	8a/	.	8f#/	e-	8a\	e-	.	.
!	!	!	!	!	!	!	!	!	!	!	!LO:LB:g=original	!
=52	=52	=52	=52	=52	=52	=52	=52	=52	=52	=52	=52	=52
!	!	!	!	!	!	!	!	!LO:MO:mod=-lei-	!	!	!	!
8D/L	4	.	8g/L	.	8b/L	.	8g/	-lej-	8b\	-lei-	4r	4r
8D/	3	.	8f#/J	.	8a/J	.	8f#/	-son	8a\	-son	.	.
8D/	.	.	8r	.	8r	.	8r	.	8r	.	8r	8r
!	!	!	!	!	!	!	!	!	!LO:LB:g=original	!	!	!
*	*	*	*	*	*	*	*	*	*	*ij	*	*
8D/J	7	.	8a/	.	8ccn\	.	8a\	e-	8ccn\	e-	8a\	8ccX\
=53	=53	=53	=53	=53	=53	=53	=53	=53	=53	=53	=53	=53
!	!	!	!	!	!LO:SIC:s=8ccnL:v	!	!	!LO:MO:mod=-lei-	!LO:SIC:s=8ccn:v	!	!	!
8G\L	4	.	8a/L	.	8cc#\L	.	8a\	-lej-	8cc#\	-lei-	8a\L	8ccX\L
!	!	!	!	!	!	!	!LO:LB:g=original	!	!	!	!	!
8G\	3	.	8g/J	.	8b\J	.	8g\	-son	8b\	-son	8g\J	8b\J
8G\	.	.	8r	.	8r	.	8r	.	8r	.	4r	4r
8G\J	.	.	8g/	.	8b\	.	8g/	e-	8b\	e-	.	.
=54	=54	=54	=54	=54	=54	=54	=54	=54	=54	=54	=54	=54
!	!	!	!	!	!	!	!	!LO:MO:mod=-lei-	!	!	!	!
8D/L	4	.	8g/L	.	8b/L	.	8g/	-lej-	8b\	-lei-	4r	4r
8D/	3	.	8f#/J	.	8a/J	.	8f#/	-son	8a\	-son	.	.
*	*	*	*	*	*	*	*	*	*	*Xij	*	*
8D/	.	.	8r	.	8r	.	8r	.	8r	.	8r	8r
8D/J	.	.	8a/	.	8ccn\	.	8a\	e-	8ccn\	e-	8a\	8ccX\
=55	=55	=55	=55	=55	=55	=55	=55	=55	=55	=55	=55	=55
!	!	!	!	!	!LO:SIC:s=8ccnL:v	!	!	!LO:MO:mod=-lei-	!LO:SIC:s=8ccn:v	!	!	!LO:SIC:s=8ccL:v
8G\L	2	.	8a/L	.	8cc#\L	.	8a\	-lej-	8cc#\	-lei-	8a\L	8cc#\L
8G\	3	.	8g/J	.	8b\J	.	8g\	-son	8b\	-son	8g\J	8b\J
!	!	!	!LO:LB:g=original	!	!	!	!	!	!	!	!	!
8G\	.	.	8r	.	8r	.	8r	.	8r	.	8r	8r
8G\J	.	.	8b/	.	8dd\	.	8b\	e-	8dd\	e-	8b\	8dd\
!	!	!	!	!	!	!	!	!	!	!	!	!LO:LB:g=original
=56	=56	=56	=56	=56	=56	=56	=56	=56	=56	=56	=56	=56
*	*	*	*	*	*	*	*	*	*	*	*2\right	*2\right
!	!	!	!	!	!	!	!	!LO:MO:mod=-lei-	!	!	!	!
8F#\L	n5	.	16a/LL	.	16ccn\LL	.	2a\	-lej-	2ccn\	-lei-	2a\	2ccX\
.	.	.	16a/	.	16cc\	.	.	.	.	.	.	.
8F#\	.	.	16a/	.	16cc\	.	.	.	.	.	.	.
.	.	.	16a/JJ	.	16cc\JJ	.	.	.	.	.	.	.
8F#\	.	.	16a/LL	.	16cc\LL	.	.	.	.	.	.	.
.	.	.	16a/	.	16cc\	.	.	.	.	.	.	.
8F#\J	.	.	16a/	.	16cc\	.	.	.	.	.	.	.
.	.	.	16a/JJ	.	16cc\JJ	.	.	.	.	.	.	.
=57	=57	=57	=57	=57	=57	=57	=57	=57	=57	=57	=57	=57
!LO:TX:a:t=P:problem=mixed beam	!	!	!	!	!LO:SIC:s=8ccnL:v	!	!	!	!LO:SIC:s=8ccnL:v	!	!	!LO:SIC:s=8ccL:v
8G\L	.	.	8a/L	.	8cc#\L	.	8a\	.	8cc#\	.	8a\L	8cc#\L
8GG/	.	.	8g/J	.	8b\J	.	8g\	-son	8b\	-son	8g\J	8b\J
!	!	!	!LO:MO:mod=!null:null	!	!	!	!	!	!	!	!	!
!	!	!	!LO:N:vis=8	!	!	!	!	!	!	!	!	!
8GG/J	.	.	4r	.	8r	.	4r	.	8r	.	4r	4r
!	!	!	!	!	!	!LO:DY:a:t=For	!	!	!	!	!	!
8r	.	.	.	.	8b\	f	.	.	8b\	Chri-	.	.
!	!	!	!	!	!LO:LB:g=original	!	!	!	!	!	!	!
=58	=58	=58	=58	=58	=58	=58	=58	=58	=58	=58	=58	=58
!	!	!LO:MO:null:mod=!LO&colon;DY&colon;ed=brack	!	!	!	!	!	!	!	!	!	!
!	!	!	!	!	!	!	!	!	!	!	!	!
!	!	!LO:MO:null:mod=f	!	!LO:DY:a	!	!	!LO:TX:a:mod=:t=1	!	!	!	!LO:TX:a:mod=:t=2	!LO:TX:a:mod=:t=2
8E\L	#	.	16ee\LL	f	16ee\LL	.	2r	.	4ee\	-ste	1r	1r
.	.	.	16ee\	.	16ee\	.	.	.	.	.	.	.
8E\	.	.	16ee\	.	16ee\	.	.	.	.	.	.	.
.	.	.	16ee\JJ	.	16ee\JJ	.	.	.	.	.	.	.
8E\	.	.	16b/LL	.	16b/LL	.	.	.	4b\	.	.	.
.	.	.	16b/	.	16b/	.	.	.	.	.	.	.
8E\J	.	.	16b/	.	16b/	.	.	.	.	.	.	.
.	.	.	16b/JJ	.	16b/JJ	.	.	.	.	.	.	.
=59	=59	=59	=59	=59	=59	=59	=59	=59	=59	=59	=59	=59
8E\L	#	.	8g#X/L	.	8g#X/L	.	4r	.	8g#X/L	.	.	.
8E\	.	.	8e/J	.	8e/J	.	.	.	8e/J	.	.	.
8E\	.	.	8r	.	8r	.	8r	.	8r	.	.	.
!	!	!	!	!LO:MO:mod=!null:null	!	!	!	!	!	!	!	!
!	!	!	!	!LO:DY:t=pia	!	!LO:DY:a	!	!	!	!	!	!
8E\J	.	.	8g#X/	p	8b/	p	8g#X/	e-	8b\	e-	.	.
=60	=60	=60	=60	=60	=60	=60	=60	=60	=60	=60	=60	=60
!	!	!LO:MO:null:mod=!LO&colon;DY&colon;ed=brack	!	!	!	!	!	!	!	!	!	!
!	!	!	!	!	!	!	!	!	!	!	!	!
!	!	!LO:MO:null:mod=p	!	!	!	!	!	!LO:MO:mod=-lei-	!	!	!	!
8E\L	4	.	8a/L	.	8cc#X\L	.	8a\	-lej-	8cc#X\	-lei-	4r	4r
8E\	3	.	8g#X/J	.	8b\J	.	8g#X\	-son	8b\	-son	.	.
8E\	.	.	8r	.	8r	.	8r	.	8r	.	8r	8r
!	!	!	!	!	!	!	!	!	!LO:LB:g=original	!	!	!
*	*	*	*	*	*	*	*	*	*	*ij	*	*
8E\J	.	.	8b/	.	8dd\	.	8b\	e-	8dd\	e-	8b\	8dd\
!	!	!	!	!	!	!	!LO:LB:g=original	!	!	!	!	!
=61	=61	=61	=61	=61	=61	=61	=61	=61	=61	=61	=61	=61
!	!	!	!	!	!	!	!	!LO:MO:mod=-lei-	!	!	!	!
8A\L	2	.	8b/L	.	8dd\L	.	8b\	-lej-	8dd\	-lei-	8b\L	8dd\L
8A\	3	.	8a/J	.	8cc#\J	.	8a\	-son	8cc#\	-son	8a\J	8cc#X\J
8A\	.	.	8r	.	8r	.	8r	.	8r	.	4r	4r
8A\J	.	.	8a/	.	8cc#\	.	8a\	e-	8cc#\	e-	.	.
=62	=62	=62	=62	=62	=62	=62	=62	=62	=62	=62	=62	=62
!	!	!	!	!	!	!	!	!LO:MO:mod=-lei-	!	!	!	!
8E\L	4	.	8a/L	.	8cc#\L	.	8a\	-lej-	8cc#\	-lei-	4r	4r
8E\	3	.	8g#X/J	.	8b\J	.	8g#X\	-son	8b\	-son	.	.
8E\	.	.	8r	.	8r	.	8r	.	8r	.	8r	8r
8E\J	7	.	8b/	.	8dd\	.	8b\	e-	8dd\	e-	8b\	8dd\
!LO:LB:g=original	!	!	!	!	!	!	!	!	!	!	!	!
=63	=63	=63	=63	=63	=63	=63	=63	=63	=63	=63	=63	=63
!	!	!	!	!	!LO:TX:a:t=P:problem=takt dopisany (korekta), niewyraźny	!	!	!LO:MO:mod=-lei-	!	!	!	!
8A\L	2	.	8b/L	.	8dd\L	.	8b\	-lej-	8dd\	-lei-	8b\L	8dd\L
8A\	3	.	8a/J	.	8cc#\J	.	8a\	-son	8cc#\	-son	8a\J	8cc#\J
*	*	*	*	*	*	*	*	*	*	*Xij	*	*
8A\	.	.	8r	.	8r	.	8r	.	8r	.	8r	8r
8A\J	.	.	8cc#\	.	8ee\	.	8cc#\	e-	8ee\	e-	8cc#\	8ee\
=64	=64	=64	=64	=64	=64	=64	=64	=64	=64	=64	=64	=64
!	!	!	!	!	!	!	!	!LO:MO:mod=-lei-	!	!	!	!
8G#X\L	5	.	16b/LL	.	16dd\LL	.	2b\	-lej-	2dd\	-lei-	2b\	2dd\
.	.	.	16b/	.	16dd\	.	.	.	.	.	.	.
8G#\	.	.	16b/	.	16dd\	.	.	.	.	.	.	.
.	.	.	16b/JJ	.	16dd\JJ	.	.	.	.	.	.	.
8G#\	.	.	16b/LL	.	16dd\LL	.	.	.	.	.	.	.
.	.	.	16b/	.	16dd\	.	.	.	.	.	.	.
8G#\J	.	.	16b/	.	16dd\	.	.	.	.	.	.	.
.	.	.	16b/JJ	.	16dd\JJ	.	.	.	.	.	.	.
=65	=65	=65	=65	=65	=65	=65	=65	=65	=65	=65	=65	=65
!LO:TX:a:t=P:problem=mixed beam	!	!	!	!	!	!	!	!	!	!	!	!
8A\L	2	.	8b/L	.	8dd\L	.	8b\	.	8dd\	.	8b\L	8dd\L
8AA/	3	.	8a/J	.	8cc#\J	.	8a\	-son	8cc#\	-son	8a\J	8cc#\J
8A\	.	.	8r	.	8r	.	8r	.	8r	.	8r	8r
8F#\J	6	.	8f#/	.	8a/	.	8f#/	e-	8a\	e-	8f#\	8a\
!	!	!	!LO:LB:g=original	!	!	!	!	!	!	!	!	!
=66	=66	=66	=66	=66	=66	=66	=66	=66	=66	=66	=66	=66
!	!	!	!	!	!	!	!	!LO:MO:mod=-lei-	!	!	!	!
8Gn\L	6	.	16g/LL	.	16b/LL	.	4g/	-lej-	4b\	-lei-	8g\L	8b\L
.	.	.	16g/	.	16b/	.	.	.	.	.	.	.
8G\	.	.	16g/	.	16b/	.	.	.	.	.	8g\	8b\
.	.	.	16g/JJ	.	16b/JJ	.	.	.	.	.	.	.
8G\	.	.	16ee\LL	.	16gg\LL	.	4ee\	.	4gg\	.	8e\	8g\
.	.	.	16ee\	.	16gg\	.	.	.	.	.	.	.
8G\J	.	.	16ee\	.	16gg\	.	.	.	.	.	8e\J	8g\J
.	.	.	16ee\JJ	.	16gg\JJ	.	.	.	.	.	.	.
=67	=67	=67	=67	=67	=67	=67	=67	=67	=67	=67	=67	=67
!LO:TX:a:t=P:problem=mixed beam	!	!	!	!	!	!	!	!	!	!	!	!
8A\L	4	.	16dd\LL	.	16ff#\LL	.	4dd\	.	4ff#\	.	8d/L	8f#\L
.	.	.	16dd\	.	16ff#\	.	.	.	.	.	.	.
8A\	3	.	16dd\	.	16ff#\	.	.	.	.	.	8d/	8f#\
.	.	.	16dd\JJ	.	16ff#\JJ	.	.	.	.	.	.	.
8AA/	.	.	16cc#\LL	.	16ee\LL	.	4cc#\	.	4ee\	.	8A/	8e\
.	.	.	16cc#\	.	16ee\	.	.	.	.	.	.	.
8AA/J	.	.	16cc#\	.	16ee\	.	.	.	.	.	8A/J	8e\J
.	.	.	16cc#\JJ	.	16ee\JJ	.	.	.	.	.	.	.
!	!	!	!	!	!LO:LB:g=original	!	!	!	!	!	!	!
=68	=68	=68	=68	=68	=68	=68	=68	=68	=68	=68	=68	=68
8D\L	.	.	4dd\	.	4dd\	.	4dd\	-son	4dd\	-son	4F#/	4d\
16D\L	.	.	.	.	.	.	.	.	.	.	.	.
16E\JJ	.	.	.	.	.	.	.	.	.	.	.	.
8F#\L	6	.	8r	.	8r	.	4r	.	4r	.	8r	8r
!	!	!	!	!	!	!LO:DY:a:t=For	!	!	!	!	!	!
8D\J	.	.	8dd\	f	8ff#\	f	.	.	.	.	8D/	8f#\
!	!	!	!	!	!	!	!LO:LB:g=original	!	!	!	!LO:LB:g=original	!
=69	=69	=69	=69	=69	=69	=69	=69	=69	=69	=69	=69	=69
!	!	!LO:DY:a	!	!	!	!	!LO:TX:a:mod=:t=16	!	!LO:TX:a:t=6:mod=	!	!	!
8AA/L	.	f	8dd\L	.	8ff#\L	.	0r	.	0r	.	8d/L	8f#\L
8AA/	.	.	8cc#\J	.	8ee\J	.	.	.	.	.	8A/J	8e\J
8AA/	3	.	8r	.	8r	.	.	.	.	.	8r	8r
8AA/J	7	.	8ee\	.	8gg\	.	.	.	.	.	8e\	8g\
=70	=70	=70	=70	=70	=70	=70	=70	=70	=70	=70	=70	=70
8D/L	2	.	8ee\L	.	8gg\L	.	.	.	.	.	8e\L	8g\L
8D/	3	.	8dd\J	.	8ff#\J	.	.	.	.	.	8D/J	8f#\J
8D/	.	.	8r	.	8r	.	.	.	.	.	4r	4r
!	!	!	!	!LO:MO:mod=!null:null	!	!	!	!	!	!	!	!
!	!	!	!	!LO:DY:t=pia	!	!LO:MO:null:mod=p	!	!	!	!	!	!
8D/J	.	.	8d/	p	8f#/	.	.	.	.	.	.	.
=71	=71	=71	=71	=71	=71	=71	=71	=71	=71	=71	=71	=71
!	!	!LO:MO:null:mod=!LO&colon;DY&colon;ed=brack	!	!	!	!	!	!	!	!	!	!
!	!	!	!	!	!	!LO:DY:a	!	!	!	!	!LO:TX:a:mod=:t=1	!LO:TX:a:mod=:t=1
!	!	!LO:MO:null:mod=p	!	!	!	!LO:MO:null:mod=.	!	!	!	!	!	!
8AA/L	4	.	8d/L	.	8f#/L	p	.	.	.	.	2r	2r
8AA/	3	.	8c#/J	.	8e/J	.	.	.	.	.	.	.
8AA/	.	.	8r	.	8r	.	.	.	.	.	.	.
8AA/J	7	.	8e/	.	8g/	.	.	.	.	.	.	.
!	!	!	!	!	!	!	!	!	!	!	!	!LO:LB:g=original
=72	=72	=72	=72	=72	=72	=72	=72	=72	=72	=72	=72	=72
!LO:TX:a:t=P:problem=mixed beam	!	!	!	!	!	!	!	!	!	!	!	!
8AA/L	.	.	8e/L	.	8g/L	.	.	.	.	.	4r	4r
8AA/	3	.	8d/J	.	8f#/J	.	.	.	.	.	.	.
8A\	.	.	8r	.	8r	.	.	.	.	.	8r	8r
!	!	!	!	!	!	!LO:MO:null:mod=f	!	!	!	!	!LO:SIC:v:s=8d	!
8F#\J	6	.	8f#/	f	8a/	.	.	.	.	.	8e\	8a\
=73	=73	=73	=73	=73	=73	=73	=73	=73	=73	=73	=73	=73
!	!	!LO:MO:null:mod=!LO&colon;DY&colon;ed=brack	!	!	!	!	!	!	!	!	!	!
!	!	!	!	!	!	!LO:DY:a:t=For	!	!	!	!	!LO:SIC:v:s=8dL	!
!	!	!LO:MO:null:mod=f	!	!	!	!LO:MO:null:mod=.	!	!	!	!	!	!
8G\L	6	.	16g/LL	.	16b/LL	f	0r	.	1r	.	8e\L	8b\L
.	.	.	16g/	.	16b/	.	.	.	.	.	.	.
8G\	.	.	16g/	.	16b/	.	.	.	.	.	8D/J	8b\
.	.	.	16g/JJ	.	16b/JJ	.	.	.	.	.	.	.
8G\	.	.	16ee\LL	.	16gg\LL	.	.	.	.	.	4r	8g\
.	.	.	16ee\	.	16gg\	.	.	.	.	.	.	.
8G\J	.	.	16ee\	.	16gg\	.	.	.	.	.	.	8g\J
.	.	.	16ee\JJ	.	16gg\JJ	.	.	.	.	.	.	.
=74	=74	=74	=74	=74	=74	=74	=74	=74	=74	=74	=74	=74
!LO:TX:a:t=P:problem=mixed beam	!	!	!	!	!	!	!	!	!	!	!LO:TX:a:mod=:t=1	!
8A\L	4	.	16dd\LL	.	16ff#\LL	.	.	.	.	.	2r	8f#\L
.	.	.	16dd\	.	16ff#\	.	.	.	.	.	.	.
8A\	.	.	16dd\	.	16ff#\	.	.	.	.	.	.	8f#\
.	.	.	16dd\JJ	.	16ff#\JJ	.	.	.	.	.	.	.
8AA/	3	.	16cc#\LL	.	16ee\LL	.	.	.	.	.	.	8e\
.	.	.	16cc#\	.	16ee\	.	.	.	.	.	.	.
8AA/J	.	.	16cc#\	.	16ee\	.	.	.	.	.	.	8e\J
.	.	.	16cc#\JJ	.	16ee\JJ	.	.	.	.	.	.	.
!	!	!	!	!	!	!	!	!	!LO:LB:g=original	!	!	!
=75	=75	=75	=75	=75	=75	=75	=75	=75	=75	=75	=75	=75
!	!	!	!	!	!	!	!	!	!	!	!LO:TX:a:t=P:problem=brak tt. 75-100	!
8D/L	.	.	4dd\	.	4dd\	.	.	.	4r	.	2ryy	4d\
8AA/	.	.	.	.	.	.	.	.	.	.	.	.
8DD/J	.	.	4r	.	8r	.	.	.	8r	.	.	4r
!	!	!	!	!	!	!LO:DY:a	!	!	!	!	!	!
8r	.	.	.	.	8a/	p	.	.	8a\	Chri-	.	.
!LO:LB:g=original	!	!	!	!	!	!	!	!	!	!	!	!
=76	=76	=76	=76	=76	=76	=76	=76	=76	=76	=76	=76	=76
!	!	!LO:MO:mod=!null:null	!	!	!	!	!	!	!	!	!	!
!	!	!LO:DY:t=pia	!	!LO:DY:a	!	!	!	!	!	!	!	!LO:TX:a:mod=:t=4
8D/L	.	p	16dd\LL	p	16dd\LL	.	.	.	4dd\	-ste	2ryy	0r
.	.	.	16dd\	.	16dd\	.	.	.	.	.	.	.
8D/	.	.	16dd\	.	16dd\	.	.	.	.	.	.	.
.	.	.	16dd\JJ	.	16dd\JJ	.	.	.	.	.	.	.
8D/	.	.	16a/LL	.	16a/LL	.	.	.	4a\	e-	.	.
.	.	.	16a/	.	16a/	.	.	.	.	.	.	.
8D/J	.	.	16a/	.	16a/	.	.	.	.	.	.	.
.	.	.	16a/JJ	.	16a/JJ	.	.	.	.	.	.	.
!	!	!	!LO:LB:g=original	!	!	!	!	!	!	!	!	!
=77	=77	=77	=77	=77	=77	=77	=77	=77	=77	=77	=77	=77
8D/L	.	.	8f#/L	.	8f#/L	.	0r	.	8f#/L	.	2ryy	.
8D/	.	.	8d/J	.	8d/J	.	.	.	8d/J	.	.	.
8D/	.	.	8r	.	8r	.	.	.	8r	.	.	.
8D/J	.	.	8f#/	.	8a/	.	.	.	8a\	e-	.	.
!	!	!	!	!	!LO:LB:g=original	!	!	!	!	!	!	!
=78	=78	=78	=78	=78	=78	=78	=78	=78	=78	=78	=78	=78
8G\L	.	.	16g/LL	.	16b\LL	.	.	.	8b\L	-lei-	2ryy	.
.	.	.	16g/	.	16b\	.	.	.	.	.	.	.
8G\	.	.	16b/	.	16dd\	.	.	.	8dd\	.	.	.
.	.	.	16b/JJ	.	16dd\JJ	.	.	.	.	.	.	.
8G\	.	.	16b/LL	.	16gg\LL	.	.	.	8gg\J	.	.	.
.	.	.	16b/	.	16gg\	.	.	.	.	.	.	.
8G\J	.	.	16b/	.	16gg\	.	.	.	8r	.	.	.
.	.	.	16b/JJ	.	16gg\JJ	.	.	.	.	.	.	.
=79	=79	=79	=79	=79	=79	=79	=79	=79	=79	=79	=79	=79
8D/L	.	.	16f#/LL	.	16a\LL	.	.	.	8a\L	.	2ryy	.
.	.	.	16f#/	.	16a\	.	.	.	.	.	.	.
8D/	.	.	16a/	.	16dd\	.	.	.	8dd\	.	.	.
.	.	.	16a/JJ	.	16dd\JJ	.	.	.	.	.	.	.
8D/	.	.	16dd\LL	.	16ff#\LL	.	.	.	8ff#\J	.	.	.
.	.	.	16dd\	.	16ff#\	.	.	.	.	.	.	.
8D/J	.	.	16dd\	.	16ff#\	.	.	.	8r	.	.	.
.	.	.	16dd\JJ	.	16ff#\JJ	.	.	.	.	.	.	.
=80	=80	=80	=80	=80	=80	=80	=80	=80	=80	=80	=80	=80
8AA/L	7	.	16e/LL	.	16g/LL	.	.	.	8g\L	.	2ryy	4r
.	.	.	16e/	.	16g/	.	.	.	.	.	.	.
8AA/	.	.	16g/	.	16cc#/	.	.	.	8cc#\	.	.	.
.	.	.	16g/JJ	.	16cc#/JJ	.	.	.	.	.	.	.
8AA/	.	.	16cc#/LL	.	16ee/LL	.	.	.	8ee\	.	.	8r
.	.	.	16cc#/	.	16ee/	.	.	.	.	.	.	.
8C#/J	.	.	16e/	.	16g/	.	.	.	8g\J	.	.	8g\
.	.	.	16e/JJ	.	16g/JJ	.	.	.	.	.	.	.
=81	=81	=81	=81	=81	=81	=81	=81	=81	=81	=81	=81	=81
8D/L	2	.	8e/L	.	8g/L	.	0r	.	8g/	.	2ryy	8g\L
8D/	3	.	8d/J	.	8f#/J	.	.	.	8f#/	-son	.	8f#\J
8D/	.	.	8r	.	8r	.	.	.	8r	.	.	4r
8D/J	.	.	8f#/	.	8a/	.	.	.	8a\	e-	.	.
=82	=82	=82	=82	=82	=82	=82	=82	=82	=82	=82	=82	=82
!	!	!	!	!	!	!	!	!	!	!	!	!LO:TX:a:mod=:t=2
8G\L	.	.	16g/LL	.	16b\LL	.	.	.	8b\L	-lei-	2ryy	1r
.	.	.	16g/	.	16b\	.	.	.	.	.	.	.
8G\	.	.	16b/	.	16dd\	.	.	.	8dd\	.	.	.
.	.	.	16b/JJ	.	16dd\JJ	.	.	.	.	.	.	.
8G\	.	.	16b/LL	.	16gg\LL	.	.	.	8gg\J	.	.	.
.	.	.	16b/	.	16gg\	.	.	.	.	.	.	.
8G\J	.	.	16b/	.	16gg\	.	.	.	8r	.	.	.
.	.	.	16b/JJ	.	16gg\JJ	.	.	.	.	.	.	.
=83	=83	=83	=83	=83	=83	=83	=83	=83	=83	=83	=83	=83
8D/L	.	.	16f#/LL	.	16a\LL	.	.	.	8a\L	.	2ryy	.
.	.	.	16f#/	.	16a\	.	.	.	.	.	.	.
8D/	.	.	16a/	.	16dd\	.	.	.	8dd\	.	.	.
.	.	.	16a/JJ	.	16dd\JJ	.	.	.	.	.	.	.
8D/	.	.	16dd\LL	.	16ff#\LL	.	.	.	8ff#\J	.	.	.
.	.	.	16dd\	.	16ff#\	.	.	.	.	.	.	.
8D/J	.	.	16dd\	.	16ff#\	.	.	.	8r	.	.	.
.	.	.	16dd\JJ	.	16ff#\JJ	.	.	.	.	.	.	.
=84	=84	=84	=84	=84	=84	=84	=84	=84	=84	=84	=84	=84
8AA/L	7	.	16e/LL	.	16g/LL	.	.	.	8g\L	.	2ryy	4r
.	.	.	16e/	.	16g/	.	.	.	.	.	.	.
8AA/	.	.	16g/	.	16cc#/	.	.	.	8cc#\	.	.	.
.	.	.	16g/JJ	.	16cc#/JJ	.	.	.	.	.	.	.
8AA/	.	.	16cc#/LL	.	16ee/LL	.	.	.	8ee\	.	.	8r
.	.	.	16cc#/	.	16ee/	.	.	.	.	.	.	.
8C#/J	.	.	16e/	.	16g/	.	.	.	8g\J	.	.	8g\
.	.	.	16e/JJ	.	16g/JJ	.	.	.	.	.	.	.
!	!	!	!	!	!	!	!	!	!LO:LB:g=original	!	!	!
=85	=85	=85	=85	=85	=85	=85	=85	=85	=85	=85	=85	=85
8D/L	2	.	8e/L	.	8g/L	.	4r	.	8g/	.	2ryy	8g\L
8D/	3	.	8d/J	.	8f#/J	.	.	.	8f#/	-son	.	8f#\J
8D/	.	.	8r	.	8r	.	8r	.	8r	.	.	8r
*	*	*	*	*	*	*	*	*	*	*ij	*	*
8D/J	.	.	8ff#\	.	8aa\	.	8ff#\	e-	8aa\	e-	.	8a\
!	!	!	!LO:LB:g=original	!	!	!	!	!	!	!	!	!
=86	=86	=86	=86	=86	=86	=86	=86	=86	=86	=86	=86	=86
!	!	!	!	!	!	!	!	!LO:MO:mod=-lei-	!	!	!	!
8BB/L	4	.	8ee\L	.	8gg\L	.	8ee\	-lej-	8gg\	-lei-	2ryy	8g\L
8BB/	3	.	8dd#X\J	.	8ff#\J	.	8dd#X\	-son	8ff#\	-son	.	8f#\J
8BB/	.	.	8r	.	8r	.	8r	.	8r	.	.	8r
!	!	!	!	!	!LO:LB:g=original	!	!	!	!	!	!	!
8BB/J	7	.	8ff#\	.	8aa\	.	8ff#\	e-	8aa\	e-	.	8a\
=87	=87	=87	=87	=87	=87	=87	=87	=87	=87	=87	=87	=87
!	!	!	!	!	!	!	!	!LO:MO:mod=-lei-	!	!	!	!
8E\L	2	.	8ff#\L	.	8aa\L	.	8ff#\	-lej-	8aa\	-lei-	2ryy	8a\L
8E\	3	.	8ee\J	.	8gg\J	.	8ee\	-son	8gg\	-son	.	8g\J
*	*	*	*	*	*	*	*	*	*	*Xij	*	*
8E\	.	.	8r	.	8r	.	8r	.	8r	.	.	4r
8E\J	.	.	8e/	.	8g/	.	8g/	e-	8ee\	e-	.	.
=88	=88	=88	=88	=88	=88	=88	=88	=88	=88	=88	=88	=88
!	!	!	!	!	!	!	!	!LO:MO:mod=-lei-	!	!	!	!LO:TX:a:mod=:t=1
8BB/L	4	.	8e/L	.	8g/L	.	8g/	-lej-	8ee\	-lei-	2ryy	2r
8BB/	3	.	8d#X/J	.	8f#/J	.	8f#/	-son	8dd#X\	-son	.	.
8BB/	.	.	8r	.	8r	.	8r	.	8r	.	.	.
*	*	*	*	*	*	*	*	*	*	*ij	*	*
8BB/J	7	.	8f#/	.	8a/	.	8a\	e-	8ff#\	e-	.	.
!LO:LB:g=original	!	!	!	!	!	!	!	!	!	!	!	!
=89	=89	=89	=89	=89	=89	=89	=89	=89	=89	=89	=89	=89
!	!	!	!	!	!	!	!	!LO:MO:mod=-lei-	!	!	!	!
8E\L	2	.	8f#/L	.	8a/L	.	8a\	-lej-	8ff#\	-lei-	2ryy	4r
8E\	3	.	8e/J	.	8g/J	.	8g\	-son	8ee\	-son	.	.
*	*	*	*	*	*	*	*	*	*	*Xij	*	*
8E\	.	.	8r	.	8r	.	8r	.	8r	.	.	8r
!	!	!	!	!LO:MO:null:mod=f	!	!LO:MO:null:mod=f	!	!	!	!	!	!
8E\J	.	.	8gg\	.	8bb\	.	8gg\	e-	8bb\	e-	.	8b\
=90	=90	=90	=90	=90	=90	=90	=90	=90	=90	=90	=90	=90
!	!	!LO:MO:null:mod=!LO&colon;DY&colon;ed=brack	!	!	!	!	!	!	!	!	!	!
!	!	!	!	!LO:DY:a	!	!LO:DY:a:t=For	!	!LO:MO:mod=-lei-	!	!	!	!
!	!	!LO:MO:null:mod=f	!	!LO:MO:null:mod=.	!	!LO:MO:null:mod=.	!	!	!	!	!	!
8BB/L	.	.	16ff#\LL	f	16aa\LL	f	2ff#\	-lej-	2aa\	-lei-	2ryy	2a\
.	.	.	16ff#\	.	16aa\	.	.	.	.	.	.	.
8BB/	.	.	16ff#\	.	16aa\	.	.	.	.	.	.	.
.	.	.	16ff#\JJ	.	16aa\JJ	.	.	.	.	.	.	.
8D#X/	.	.	16ff#\LL	.	16aa\LL	.	.	.	.	.	.	.
.	.	.	16ff#\	.	16aa\	.	.	.	.	.	.	.
8D#/J	.	.	16ff#\	.	16aa\	.	.	.	.	.	.	.
.	.	.	16ff#\JJ	.	16aa\JJ	.	.	.	.	.	.	.
=91	=91	=91	=91	=91	=91	=91	=91	=91	=91	=91	=91	=91
8E\L	2	.	8ff#\L	.	8aa\L	.	8ff#\	.	8aa\	.	2ryy	8a\L
8E\	3	.	8ee\J	.	8gg\J	.	8ee\	-son	8gg\	-son	.	8g\J
8E\	.	.	8r	.	8r	.	4r	.	8r	.	.	4r
8E\J	.	.	8ee\	.	8gg\	.	.	.	8gg\	e-	.	.
!	!	!	!	!	!	!	!LO:LB:g=original	!	!	!	!	!LO:LB:g=original
=92	=92	=92	=92	=92	=92	=92	=92	=92	=92	=92	=92	=92
!	!	!	!	!	!	!	!LO:TX:a:mod=:t=1	!	!	!	!	!LO:TX:a:mod=:t=1
8AA/L	2	.	16ee\LL	.	16gg\LL	.	2r	.	4gg\	-lei-	2ryy	2r
.	.	.	16ee\	.	16gg\	.	.	.	.	.	.	.
8AA/	.	.	16ee\	.	16gg\	.	.	.	.	.	.	.
.	.	.	16ee\JJ	.	16gg\JJ	.	.	.	.	.	.	.
8AA/	3	.	16cc#\LL	.	16ee\LL	.	.	.	4ee\	.	.	.
.	.	.	16cc#\	.	16ee\	.	.	.	.	.	.	.
8AA/J	.	.	16cc#\	.	16ee\	.	.	.	.	.	.	.
.	.	.	16cc#\JJ	.	16ee\JJ	.	.	.	.	.	.	.
!	!	!	!	!	!	!	!	!	!LO:LB:g=original	!	!	!
!!LO:MO:ori
=93	=93	=93	=93	=93	=93	=93	=93	=93	=93	=93	=93	=93
!LO:TX:a:t=P:problem=brak tt. 93-96	!	!	!LO:TX:a:t=P:problem=brak tt. 93-96	!	!LO:TX:a:t=P:problem=brak tt. 93-96	!	!LO:TX:a:t=P:problem=brak tt. 93-96	!	!LO:TX:a:t=P:problem=brak tt. 93-96	!	!	!LO:TX:a:t=P:problem=w tt. 93-96 niepotrzebna powtórka tt. 89-92
2ryy	.	.	2ryy	.	2ryy	.	2ryy	.	2ryy	.	2ryy	4r
.	.	.	.	.	.	.	.	.	.	.	.	8r
.	.	.	.	.	.	.	.	.	.	.	.	8b\
=94	=94	=94	=94	=94	=94	=94	=94	=94	=94	=94	=94	=94
2ryy	.	.	2ryy	.	2ryy	.	2ryy	.	2ryy	.	2ryy	2a\
=95	=95	=95	=95	=95	=95	=95	=95	=95	=95	=95	=95	=95
2ryy	.	.	2ryy	.	2ryy	.	2ryy	.	2ryy	.	2ryy	8a\L
.	.	.	.	.	.	.	.	.	.	.	.	8g\J
.	.	.	.	.	.	.	.	.	.	.	.	4r
=96	=96	=96	=96	=96	=96	=96	=96	=96	=96	=96	=96	=96
!	!	!	!	!	!	!	!	!	!	!	!	!LO:TX:a:mod=:t=1
2ryy	.	.	2ryy	.	2ryy	.	2ryy	.	2ryy	.	2ryy	2r
!!LO:MO:end
=97	=97	=97	=97	=97	=97	=97	=97	=97	=97	=97	=97	=97
8AA/L	.	.	8cc#\L	.	8cc#\L	.	4r	.	8cc#\L	-son	2ryy	4r
8AA/	.	.	8a\J	.	8a\J	.	.	.	8a\J	.	.	.
8AA/	.	.	8r	.	8r	.	8r	.	8r	.	.	8r
*	*	*	*	*	*	*	*	*	*	*ij	*	*
!	!	!	!	!LO:MO:mod=!null:null	!	!	!	!	!	!	!	!
!	!	!	!	!LO:DY:t=pia	!	!LO:DY:a	!	!	!	!	!	!
8AA/J	7	.	8ee\	p	8gg\	p	8ee\	e-	8gg\	e-	.	8g\
=98	=98	=98	=98	=98	=98	=98	=98	=98	=98	=98	=98	=98
!	!	!LO:MO:null:mod=!LO&colon;DY&colon;ed=brack	!	!	!	!	!	!	!	!	!	!
!	!	!	!	!	!	!	!	!	!	!	!	!
!	!	!LO:MO:null:mod=p	!	!	!	!	!	!LO:MO:mod=-lei-	!	!	!	!
8AA/L	4	.	8dd\L	.	8ff#\L	.	8ddn\	-lej-	8ff#\	-lei-	2ryy	8f#\L
8AA/	3	.	8cc#\J	.	8ee\J	.	8cc#\	-son	8ee\	-son	.	8e\J
*	*	*	*	*	*	*	*	*	*	*Xij	*	*
8AA/	.	.	8r	.	8r	.	8r	.	8r	.	.	8r
!	!	!	!	!	!	!	!	!	!	!	!	!LO:TX:a:t=P:problem=wykreślona niepotrzebna powtórka trzech nut
8AA/J	7	.	8ee\	.	8gg\	.	8ee\	e-	8gg\	e-	.	8g\
=99	=99	=99	=99	=99	=99	=99	=99	=99	=99	=99	=99	=99
!	!	!	!	!	!	!	!	!LO:MO:mod=-lei-	!	!	!	!
8Dn\L	2	.	8ee\L	.	8gg\L	.	8ee\	-lej-	8gg\	-lei-	2ryy	8g\L
8D/	3	.	8dd\J	.	8ff#\J	.	8dd\	-son	8ff#\	-son	.	8f#\J
8D/	.	.	8r	.	8r	.	8r	.	8r	.	.	4r
*	*	*	*	*	*	*	*	*	*	*ij	*	*
8D/J	.	.	8d/	.	8f#/	.	8f#/	e-	8dd\	e-	.	.
=100	=100	=100	=100	=100	=100	=100	=100	=100	=100	=100	=100	=100
!	!	!	!	!	!	!	!	!LO:MO:mod=-lei-	!	!	!	!LO:TX:a:mod=:t=1
8AA/L	4	.	8d/L	.	8f#/L	.	8f#/	-lej-	8dd\	-lei-	2ryy	2r
8AA/	3	.	8c#/J	.	8e/J	.	8e/	-son	8cc#\	-son	.	.
8AA/	.	.	8r	.	8r	.	8r	.	8r	.	.	.
8AA/J	7	.	8e/	.	8g/	.	8g/	e-	8ee\	e-	.	.
=101	=101	=101	=101	=101	=101	=101	=101	=101	=101	=101	=101	=101
!	!	!	!	!	!	!	!	!LO:MO:mod=-lei-	!	!	!	!
8D/L	2	.	8e/L	.	8g/L	.	8g/	-lej-	8ee\	-lei-	4r	4r
8D/	3	.	8d/J	.	8f#/J	.	8f#/	-son	8dd\	-son	.	.
*	*	*	*	*	*	*	*	*	*	*Xij	*	*
8D/	.	.	8r	.	8r	.	8r	.	8r	.	8r	8r
!	!	!	!	!LO:MO:null:mod=f	!	!LO:MO:null:mod=f	!	!	!	!	!	!
8D/J	.	.	8ff#\	.	8aa\	.	8ff#\	e-	8aa\	e-	8f#\	8a\
!	!	!	!LO:LB:g=original	!	!LO:PB:g=original	!	!	!	!	!	!	!
=102	=102	=102	=102	=102	=102	=102	=102	=102	=102	=102	=102	=102
!	!	!LO:MO:null:mod=!LO&colon;DY&colon;ed=brack	!	!	!	!	!	!	!	!	!	!
!	!	!	!	!LO:DY:a:t=For	!	!LO:DY:a	!	!LO:MO:mod=-lei-	!	!	!	!
!	!	!LO:MO:null:mod=f	!	!LO:MO:null:mod=.	!	!LO:MO:null:mod=.	!	!	!	!	!	!
8AA/L	.	.	16ee\LL	f	16gg\LL	f	2ee\	-lej-	2gg\	-lei-	2e\	2g\
.	.	.	16ee\	.	16gg\	.	.	.	.	.	.	.
8AA/	.	.	16ee\	.	16gg\	.	.	.	.	.	.	.
.	.	.	16ee\JJ	.	16gg\JJ	.	.	.	.	.	.	.
8C#/	.	.	16ee\LL	.	16gg\LL	.	.	.	.	.	.	.
.	.	.	16ee\	.	16gg\	.	.	.	.	.	.	.
8C#/J	.	.	16ee\	.	16gg\	.	.	.	.	.	.	.
.	.	.	16ee\JJ	.	16gg\JJ	.	.	.	.	.	.	.
=103	=103	=103	=103	=103	=103	=103	=103	=103	=103	=103	=103	=103
8D/L	2	.	8ee\L	.	8gg\L	.	8ee\	.	8gg\	.	8e\L	8g\L
8D/	3	.	8dd\J	.	8ff#\J	.	8dd\	-son	8ff#\	-son	8D/J	8f#\J
8D/	.	.	8r	.	8r	.	8r	.	8r	.	8r	8r
*	*	*	*	*	*	*	*	*	*	*ij	*	*
!	!	!	!	!LO:MO:mod=!null:null	!	!	!	!	!	!	!	!
!	!	!	!	!LO:DY:t=pia	!	!	!	!	!	!	!	!LO:SIC:s=8f#:v
8D/J	.	.	8dd\	p	8ff#\	p	8dd\	e-	8ff#\	e-	8D/	8a\
!	!	!	!	!	!	!	!LO:LB:g=original	!	!	!	!	!
=104	=104	=104	=104	=104	=104	=104	=104	=104	=104	=104	=104	=104
!	!	!LO:MO:null:mod=!LO&colon;DY&colon;ed=brack	!	!	!	!	!	!	!	!	!	!
!	!	!	!	!	!	!	!	!	!	!	!	!
!	!	!LO:MO:null:mod=p	!	!	!	!	!	!LO:MO:mod=-lei-	!	!	!	!LO:SIC:s=8f#L:v
8AA/L	4	.	8dd\L	.	8ff#\L	.	8dd\	-lej-	8ff#\	-lei-	8d/L	8g\L
!	!	!	!	!	!	!	!	!	!	!	!	!LO:SIC:s=8eJ:v
8AA/	3	.	8cc#\J	.	8ee\J	.	8cc#\	-son	8ee\	-son	8A/J	8f#\J
8AA/	.	.	8r	.	8r	.	8r	.	8r	.	8r	8r
!	!	!	!	!	!	!	!	!	!LO:LB:g=original	!	!	!LO:SIC:s=8g:v
8AA/J	7	.	8ee\	.	8gg\	.	8ee\	e-	8gg\	e-	8e\	8a\
=105	=105	=105	=105	=105	=105	=105	=105	=105	=105	=105	=105	=105
!	!	!	!	!	!	!	!	!LO:MO:mod=-lei-	!	!	!	!LO:SIC:s=8gL:v
8D/L	2	.	8ee\L	.	8gg\L	.	8ee\	-lej-	8gg\	-lei-	8e\L	8a\L
!	!	!	!	!	!	!	!	!	!	!	!	!LO:SIC:s=8f#J:v
8D/	3	.	8dd\J	.	8ff#\J	.	8dd\	-son	8ff#\	-son	8D/J	8g\J
8D/	.	.	8r	.	8r	.	8r	.	8r	.	4r	4r
8D/J	.	.	8d/	.	8f#/	.	8f#/	e-	8dd\	e-	.	.
=106	=106	=106	=106	=106	=106	=106	=106	=106	=106	=106	=106	=106
!	!	!	!	!	!	!	!	!LO:MO:mod=-lei-	!	!	!LO:TX:a:mod=:t=1	!LO:TX:a:mod=:t=1
8AA/L	4	.	8d/L	.	8f#/L	.	8f#/	-lej-	8dd\	-lei-	2r	2r
8AA/	3	.	8c#/J	.	8e/J	.	8e/	-son	8cc#\	-son	.	.
*	*	*	*	*	*	*	*	*	*	*Xij	*	*
8AA/	.	.	8r	.	8r	.	8r	.	8r	.	.	.
8AA/J	7	.	8e/	.	8g/	.	8g/	e-	8ee\	e-	.	.
!LO:LB:g=original	!	!	!	!	!	!	!	!	!	!	!	!LO:LB:g=original
=107	=107	=107	=107	=107	=107	=107	=107	=107	=107	=107	=107	=107
!	!	!	!	!	!	!	!	!LO:MO:mod=-lei-	!	!	!	!
8D\L	.	.	8e/L	.	8g/L	.	8g/	-lej-	8ee\	-lei-	4r	4r
8D\	.	.	8d/J	.	8f#/J	.	8f#/	-son	8dd\	-son	.	.
8D\	.	.	8r	.	8r	.	8r	.	8r	.	8r	8r
8F#\J	6	.	8f#/	.	8a/	.	8f#/	e-	8a\	e-	8f#\	8a\
=108	=108	=108	=108	=108	=108	=108	=108	=108	=108	=108	=108	=108
!	!	!	!	!	!	!	!	!LO:MO:mod=-lei-	!	!	!	!
8G\L	.	.	16g/LL	.	16b/LL	.	4g/	-lej-	4b\	-lei-	8g\L	8b\L
.	.	.	16g/	.	16b/	.	.	.	.	.	.	.
8G\	.	.	16g/	.	16b/	.	.	.	.	.	8g\	8b\
.	.	.	16g/JJ	.	16b/JJ	.	.	.	.	.	.	.
8E\	6	.	16g/LL	.	16cc#\LL	.	4e/	.	4cc#\	.	8e\	8cc#\
.	.	.	16g/	.	16cc#\	.	.	.	.	.	.	.
8E\J	.	.	16g/	.	16cc#\	.	.	.	.	.	8e\J	8cc#\J
.	.	.	16g/JJ	.	16cc#\JJ	.	.	.	.	.	.	.
=109	=109	=109	=109	=109	=109	=109	=109	=109	=109	=109	=109	=109
8F#\L	6	.	16a/LL	.	16dd\LL	.	2f#/	.	4dd\	.	8f#\L	8dd\L
.	.	.	16a/	.	16dd\	.	.	.	.	.	.	.
8F#\	.	.	16a/	.	16dd\	.	.	.	.	.	8f#\	8dd\
.	.	.	16a/JJ	.	16dd\JJ	.	.	.	.	.	.	.
8D\	.	.	16f#/LL	.	16a/LL	.	.	.	4a\	.	8f#\	8a\
.	.	.	16f#/	.	16a/	.	.	.	.	.	.	.
8D\J	.	.	16f#/	.	16a/	.	.	.	.	.	8f#\J	8a\J
.	.	.	16f#/JJ	.	16a/JJ	.	.	.	.	.	.	.
=110	=110	=110	=110	=110	=110	=110	=110	=110	=110	=110	=110	=110
8G\L	6	.	16g/LL	.	16b/LL	.	4g/	.	4b\	.	8g\L	8b\L
.	.	.	16g/	.	16b/	.	.	.	.	.	.	.
8G\	.	.	16g/	.	16b/	.	.	.	.	.	8g\	8b\
.	.	.	16g/JJ	.	16b/JJ	.	.	.	.	.	.	.
8G\	.	.	16ee\LL	.	16gg\LL	.	4ee\	.	4gg\	.	8e\	8g\
.	.	.	16ee\	.	16gg\	.	.	.	.	.	.	.
8G\J	.	.	16ee\	.	16gg\	.	.	.	.	.	8e\J	8g\J
.	.	.	16ee\JJ	.	16gg\JJ	.	.	.	.	.	.	.
=111	=111	=111	=111	=111	=111	=111	=111	=111	=111	=111	=111	=111
8A\L	4	.	16dd\LL	.	16ff#\LL	.	2dd\	.	2ff#\	.	8D/L	8f#\L
.	.	.	16dd\	.	16ff#\	.	.	.	.	.	.	.
8A\	.	.	16dd\	.	16ff#\	.	.	.	.	.	8D/	8f#\
.	.	.	16dd\JJ	.	16ff#\JJ	.	.	.	.	.	.	.
!	!	!	!	!	!LO:LB:g=original	!	!	!	!	!	!	!
8A\	.	.	16dd\LL	.	16ff#\LL	.	.	.	.	.	8D/	8f#\
.	.	.	16dd\	.	16ff#\	.	.	.	.	.	.	.
8A\J	.	.	16dd\	.	16ff#\	.	.	.	.	.	8D/J	8f#\J
.	.	.	16dd\JJ	.	16ff#\JJ	.	.	.	.	.	.	.
!	!	!	!	!	!	!	!LO:LB:g=original	!	!	!	!	!
=112	=112	=112	=112	=112	=112	=112	=112	=112	=112	=112	=112	=112
8AA/L	.	.	16cc#\LL	.	16ee\LL	.	2cc#\	.	2ee\	.	8A/L	8e\L
.	.	.	16cc#\	.	16ee\	.	.	.	.	.	.	.
8AA/	.	.	16cc#\	.	16ee\	.	.	.	.	.	8A/	8e\
.	.	.	16cc#\JJ	.	16ee\JJ	.	.	.	.	.	.	.
!	!	!	!LO:LB:g=original	!	!	!	!	!	!	!	!	!
8AA/	.	.	16cc#\LL	.	16ee\LL	.	.	.	.	.	8A/	8e\
.	.	.	16cc#\	.	16ee\	.	.	.	.	.	.	.
8AA/J	.	.	16cc#\	.	16ee\	.	.	.	.	.	8A/J	8e\J
.	.	.	16cc#\JJ	.	16ee\JJ	.	.	.	.	.	.	.
!	!	!	!	!	!	!	!	!	!LO:LB:g=original	!	!LO:LB:g=original	!
=113	=113	=113	=113	=113	=113	=113	=113	=113	=113	=113	=113	=113
8D\L	.	.	4dd\	.	4dd\	.	4dd\	-son	4dd\	-son	4F#/	4d\
16D\L	.	.	.	.	.	.	.	.	.	.	.	.
16E\JJ	.	.	.	.	.	.	.	.	.	.	.	.
8F#\L	.	.	8r	.	8r	.	4r	.	4r	.	8r	8r
!	!	!	!	!LO:MO:null:mod=f	!	!	!	!	!	!	!	!
8D\J	.	.	8f#/	.	8a/	f	.	.	.	.	8f#\	8a\
=114	=114	=114	=114	=114	=114	=114	=114	=114	=114	=114	=114	=114
!	!	!LO:MO:mod=!null:null	!	!LO:DY:a:t=For.	!	!	!LO:TX:a:mod=:t=17	!	!LO:TX:a:mod=:t=17	!	!	!
!	!	!LO:DY:t=For	!	!LO:MO:null:mod=.	!	!	!	!	!	!	!	!
8G\L	.	f	16g/LL	f	16b\LL	.	0r	.	0r	.	4g\	4b\
.	.	.	16g/	.	16b\	.	.	.	.	.	.	.
8G\	.	.	16b/	.	16dd\	.	.	.	.	.	.	.
.	.	.	16b/JJ	.	16dd\JJ	.	.	.	.	.	.	.
8G\	.	.	16dd\LL	.	16gg\LL	.	.	.	.	.	4r	4r
.	.	.	16dd\	.	16gg\	.	.	.	.	.	.	.
8G\J	.	.	16gg\	.	16bb\	.	.	.	.	.	.	.
.	.	.	16gg\JJ	.	16bb\JJ	.	.	.	.	.	.	.
=115	=115	=115	=115	=115	=115	=115	=115	=115	=115	=115	=115	=115
8G\L	.	.	16gg\LL	.	16bb\LL	.	.	.	.	.	4g\	4b\
.	.	.	16gg\	.	16bb\	.	.	.	.	.	.	.
8G\	.	.	16dd\	.	16gg\	.	.	.	.	.	.	.
.	.	.	16dd\JJ	.	16gg\JJ	.	.	.	.	.	.	.
8G\	.	.	16b/LL	.	16dd\LL	.	.	.	.	.	4r	4r
.	.	.	16b/	.	16dd\	.	.	.	.	.	.	.
8G\J	.	.	16g/	.	16b\	.	.	.	.	.	.	.
.	.	.	16g/JJ	.	16b\JJ	.	.	.	.	.	.	.
=116	=116	=116	=116	=116	=116	=116	=116	=116	=116	=116	=116	=116
8D/L	.	.	16f#/LL	.	16a\LL	.	.	.	.	.	4f#\	4a\
.	.	.	16f#/	.	16a\	.	.	.	.	.	.	.
8D/	.	.	16a/	.	16dd\	.	.	.	.	.	.	.
.	.	.	16a/JJ	.	16dd\JJ	.	.	.	.	.	.	.
8D/	.	.	16dd\LL	.	16ff#\LL	.	.	.	.	.	4r	4r
.	.	.	16dd\	.	16ff#\	.	.	.	.	.	.	.
8D/J	.	.	16ff#\	.	16aa\	.	.	.	.	.	.	.
.	.	.	16ff#\JJ	.	16aa\JJ	.	.	.	.	.	.	.
=117	=117	=117	=117	=117	=117	=117	=117	=117	=117	=117	=117	=117
8D/L	.	.	16ff#\LL	.	16aa\LL	.	.	.	.	.	4f#\	4a\
.	.	.	16ff#\	.	16aa\	.	.	.	.	.	.	.
8D/	.	.	16dd\	.	16ff#\	.	.	.	.	.	.	.
.	.	.	16dd\JJ	.	16ff#\JJ	.	.	.	.	.	.	.
8D/	.	.	16a/LL	.	16dd\LL	.	.	.	.	.	4r	4r
.	.	.	16a/	.	16dd\	.	.	.	.	.	.	.
8D/J	.	.	16f#/	.	16a\	.	.	.	.	.	.	.
.	.	.	16f#/JJ	.	16a\JJ	.	.	.	.	.	.	.
=118	=118	=118	=118	=118	=118	=118	=118	=118	=118	=118	=118	=118
8AA/L	7	.	16e/LL	.	16g/LL	.	0r	.	0r	.	4e\	4g\
.	.	.	16e/	.	16g/	.	.	.	.	.	.	.
8AA/	.	.	16a/	.	16cc#/	.	.	.	.	.	.	.
.	.	.	16a/JJ	.	16cc#/JJ	.	.	.	.	.	.	.
8AA/	.	.	16cc#\LL	.	16ee\LL	.	.	.	.	.	4r	4r
.	.	.	16cc#\	.	16ee\	.	.	.	.	.	.	.
8AA/J	.	.	16ee\	.	16gg\	.	.	.	.	.	.	.
.	.	.	16ee\JJ	.	16gg\JJ	.	.	.	.	.	.	.
=119	=119	=119	=119	=119	=119	=119	=119	=119	=119	=119	=119	=119
8AA/L	.	.	16ee\LL	.	16gg\LL	.	.	.	.	.	4e\	4g\
.	.	.	16ee\	.	16gg\	.	.	.	.	.	.	.
8AA/	.	.	16cc#\	.	16ee\	.	.	.	.	.	.	.
.	.	.	16cc#\JJ	.	16ee\JJ	.	.	.	.	.	.	.
8AA/	.	.	16a/LL	.	16cc#\LL	.	.	.	.	.	4r	4r
.	.	.	16a/	.	16cc#\	.	.	.	.	.	.	.
8C#/J	.	.	16e/	.	16g\	.	.	.	.	.	.	.
.	.	.	16e/JJ	.	16g\JJ	.	.	.	.	.	.	.
!LO:LB:g=original	!	!	!	!	!LO:LB:g=original	!	!	!	!	!	!	!
=120	=120	=120	=120	=120	=120	=120	=120	=120	=120	=120	=120	=120
8D/L	2	.	8e/L	.	8g/L	.	.	.	.	.	8e\L	8g\L
8D/	3	.	8d/J	.	8f#/J	.	.	.	.	.	8D/J	8f#\J
8D/	.	.	8r	.	8r	.	.	.	.	.	8r	8r
!	!	!	!	!LO:MO:null:mod=!LO&colon;DY&colon;ed=brack	!	!	!	!	!	!	!	!
!	!	!	!	!	!	!	!	!	!	!	!	!
!	!	!	!	!LO:MO:null:mod=p	!	!LO:DY:a	!	!	!	!	!	!
8D/J	.	.	8dd\	.	8ff#\	p	.	.	.	.	8D/	8f#\
=121	=121	=121	=121	=121	=121	=121	=121	=121	=121	=121	=121	=121
!	!	!LO:MO:null:mod=!LO&colon;DY&colon;ed=brack	!	!	!	!	!	!	!	!	!	!
!	!	!	!	!	!	!	!	!	!	!	!	!
!	!	!LO:MO:null:mod=p	!	!	!	!	!	!	!	!	!	!
8AA/L	4	.	8dd\L	.	8ff#\L	.	.	.	.	.	8d/L	8f#\L
8AA/	3	.	8cc#\J	.	8ee\J	.	.	.	.	.	8A/J	8e\J
8AA/	.	.	8r	.	8r	.	.	.	.	.	8r	8r
8AA/J	7	.	8ee\	.	8gg\	.	.	.	.	.	8e\	8g\
!	!	!	!LO:PB:g=original	!	!	!	!	!	!	!	!	!
=122	=122	=122	=122	=122	=122	=122	=122	=122	=122	=122	=122	=122
8D/L	2	.	8ee\L	.	8gg\L	.	0r	.	0r	.	8e\L	8g\L
8D/	3	.	8dd\J	.	8ff#\J	.	.	.	.	.	8D/J	8f#\J
8D/	.	.	8r	.	8r	.	.	.	.	.	4r	4r
!	!	!	!	!LO:DY:t=pia	!	!	!	!	!	!	!	!
!	!	!	!	!LO:MO:null:mod=.	!	!	!	!	!	!	!	!
8D/J	.	.	8d/	p	8f#/	.	.	.	.	.	.	.
!	!	!	!	!	!	!	!	!	!	!	!	!LO:LB:g=original
=123	=123	=123	=123	=123	=123	=123	=123	=123	=123	=123	=123	=123
!	!	!	!	!	!	!	!	!	!	!	!LO:TX:a:mod=:t=1	!LO:TX:a:mod=:t=1
8AA/L	4	.	8d/L	.	8f#/L	.	.	.	.	.	2r	2r
8AA/	3	.	8c#/J	.	8e/J	.	.	.	.	.	.	.
8AA/	.	.	8r	.	8r	.	.	.	.	.	.	.
8AA/J	7	.	8e/	.	8g/	.	.	.	.	.	.	.
=124	=124	=124	=124	=124	=124	=124	=124	=124	=124	=124	=124	=124
8D\L	.	.	8e/L	.	8g/L	.	.	.	.	.	4r	4r
8D\	.	.	8d/J	.	8f#/J	.	.	.	.	.	.	.
8D\	.	.	8r	.	8r	.	.	.	.	.	8r	8r
!	!	!	!	!LO:MO:mod=!null:null	!	!	!	!	!	!	!	!
!	!	!	!	!LO:DY:t=For	!	!LO:MO:null:mod=f	!	!	!	!	!	!
8F#\J	6	.	8f#/	f	8a/	.	.	.	.	.	8f#\	8a\
=125	=125	=125	=125	=125	=125	=125	=125	=125	=125	=125	=125	=125
!	!	!LO:MO:null:mod=!LO&colon;DY&colon;ed=brack	!	!	!	!	!	!	!	!	!	!
!	!	!	!	!	!	!LO:DY:a:t=For	!	!	!	!	!	!
!	!	!LO:MO:null:mod=f	!	!	!	!LO:MO:null:mod=.	!	!	!	!	!	!
8A\L	.	.	16a/LL	.	16cc#\LL	f	.	.	.	.	8e\L	8cc#\L
.	.	.	16a/	.	16cc#\	.	.	.	.	.	.	.
8A\	.	.	16a/	.	16cc#\	.	.	.	.	.	8e\	8cc#\
.	.	.	16a/JJ	.	16cc#\JJ	.	.	.	.	.	.	.
8G\	2	.	16a/LL	.	16cc#\LL	.	.	.	.	.	8e\	8cc#\
.	.	.	16a/	.	16cc#\	.	.	.	.	.	.	.
8G\J	.	.	16a/	.	16cc#\	.	.	.	.	.	8e\J	8cc#\J
.	.	.	16a/JJ	.	16cc#\JJ	.	.	.	.	.	.	.
=126	=126	=126	=126	=126	=126	=126	=126	=126	=126	=126	=126	=126
8F#\L	6	.	16a/LL	.	16dd\LL	.	0/	.	0r	.	8f#\L	8dd\L
.	.	.	16a/	.	16dd\	.	.	.	.	.	.	.
8F#\	.	.	16a/	.	16dd\	.	.	.	.	.	8f#\	8dd\
.	.	.	16a/JJ	.	16dd\JJ	.	.	.	.	.	.	.
8D\	.	.	16f#/LL	.	16a/LL	.	.	.	.	.	8f#\	8a\
.	.	.	16f#/	.	16a/	.	.	.	.	.	.	.
8D\J	.	.	16f#/	.	16a/	.	.	.	.	.	8f#\J	8a\J
.	.	.	16f#/JJ	.	16a/JJ	.	.	.	.	.	.	.
=127	=127	=127	=127	=127	=127	=127	=127	=127	=127	=127	=127	=127
8G\L	6	.	16g/LL	.	16b\LL	.	.	.	.	.	8g\L	8b\L
.	.	.	16g/	.	16b\	.	.	.	.	.	.	.
8G\	.	.	16g/	.	16b\	.	.	.	.	.	8g\	8b\J
.	.	.	16g/JJ	.	16b\JJ	.	.	.	.	.	.	.
8G\	.	.	16ee\LL	.	16gg\LL	.	.	.	.	.	8e\	8g\L
.	.	.	16ee\	.	16gg\	.	.	.	.	.	.	.
8G\J	.	.	16ee\	.	16gg\	.	.	.	.	.	8e\J	8g\J
.	.	.	16ee\JJ	.	16gg\JJ	.	.	.	.	.	.	.
=128	=128	=128	=128	=128	=128	=128	=128	=128	=128	=128	=128	=128
8A\L	4	.	16dd\LL	.	16ff#\LL	.	.	.	.	.	8D/L	8f#\L
.	.	.	16dd\	.	16ff#\	.	.	.	.	.	.	.
8A\	.	.	16dd\	.	16ff#\	.	.	.	.	.	8D/	8f#\
.	.	.	16dd\JJ	.	16ff#\JJ	.	.	.	.	.	.	.
8A\	.	.	16dd\LL	.	16ff#\LL	.	.	.	.	.	8D/	8f#\
.	.	.	16dd\	.	16ff#\	.	.	.	.	.	.	.
8A\J	.	.	16dd\	.	16ff#\	.	.	.	.	.	8D/J	8f#\J
.	.	.	16dd\JJ	.	16ff#\JJ	.	.	.	.	.	.	.
!	!	!	!	!	!LO:LB:g=original	!	!	!	!	!	!	!
=129	=129	=129	=129	=129	=129	=129	=129	=129	=129	=129	=129	=129
8AA/L	3	.	16cc#\LL	.	16ee\LL	.	.	.	.	.	8A/L	8e\L
.	.	.	16cc#\	.	16ee\	.	.	.	.	.	.	.
8AA/	.	.	16cc#\	.	16ee\	.	.	.	.	.	8A/	8e\
.	.	.	16cc#\JJ	.	16ee\JJ	.	.	.	.	.	.	.
8AA/	.	.	16cc#\LL	.	16ee\LL	.	.	.	.	.	8A/	8e\
.	.	.	16cc#\	.	16ee\	.	.	.	.	.	.	.
8AA/J	.	.	16cc#\	.	16ee\	.	.	.	.	.	8A/J	8e\J
.	.	.	16cc#\JJ	.	16ee\JJ	.	.	.	.	.	.	.
=130	=130	=130	=130	=130	=130	=130	=130	=130	=130	=130	=130	=130
4D/	.	.	4dd\	.	4dd\	.	2r	.	2r	.	4F#/	4d\
!	!	!	!LO:TX:a:t=P:problem=brak znaku repetycji	!	!	!	!	!	!	!	!	!LO:TX:a:t=P:problem=brak znaku repetycji
!LO:TX:b:t=Kÿrie\nDa Capo:mod=	!	!	!LO:TX:b:t=Kÿrie Da Capo:mod=	!	!LO:TX:b:t=Kyrie da Capo &colon;||&colon;:mod=	!	!LO:TX:b:t=Kyrie Da Capo	!	!LO:TX:b:t=Kyrie Da Capo\nVolti Subito	!	!	!
4r	.	.	4r	.	4r	.	.	.	.	.	4r	4r
!!LO:TX:a:B:t=:mod=Kyrie da capo
==	==	==	==	==	==	==	==	==	==	==	==	==
*-	*-	*-	*-	*-	*-	*-	*-	*-	*-	*-	*-	*-
!!!system-decoration: [g1][g2][g3]s7
!!!RDF**kern: > = above
!!!RDF**kern: < = below
!!!RDF**kern: | = vertical stroke
!!LO:MO:ori
!!!RDF**dynam: p = "pia:"
!!!RDF**dynam: f = "For:"
!!LO:MO:end
!!!filter-modern: sic -sq | shed -e "s/yy//" | shed -e "s/TX(.*):t=P:/tx$1:t=P:/LG" | shed -e "s/^(\d+[\/\\]right)/$1yy/I; s/^(\d+[\/\\]left)/$1yy/I" | shed -e "s/:rj/:RJ/L" | shed -e "s/LO:DY:(a|b|rj)/LO:dy:$1/L" | autostem -r | tie -s | shed -k -e "s/[<>]//g" | humtr -p | modori -m 
!!!ENC: Krzysztof Stępień
!!!END: 2020-04-15
!!!ENC: Marta Lawrence
!!!END: 2020-09-21
!!!ENC-modern: Andrzej Borzym
!!!END-modern: 2022-06-29
